ncols 100
nrows 100
xllcorner 612500
yllcorner 6642000
cellsize 0.5
NODATA_value -9999
3.57 9.68 14.42 17.93 20.35 21.34 21.22 19.68 16.97 13.04 7.67 1.13 0.15 0.16 0.18 0.19 0.2 0.21 0.22 0.34 0.25 0.3 5.54 11.2 15.39 17.96 19.04 18.58 16.6 12.88 7.7 2.7 6.23 8.38 9.16 8.53 6.55 3.18 0.47 0.48 0.49 4.48 7.63 9.62 10.37 9.97 8.43 5.75 1.86 0.61 0.62 0.67 4.03 11.14 16.23 19.66 21.13 21.03 19.12 15.26 9.73 2.52 0.81 0.79 0.8 0.84 0.83 0.84 4.85 9.39 12.14 13.08 12.1 9.38 5.04 0.95 0.96 1.01 0.99 1.03 1.09 1.03 1.04 1.06 1.07 1.14 1.14 1.11 1.13 1.19 1.15 1.17 1.18 1.2 1.21 1.22 1.24 1.29 1.27 1.3
3.57 9.6 14.42 18.04 20.27 21.39 21.17 19.67 16.98 12.89 7.7 1.2 0.16 0.18 0.24 0.22 0.21 0.23 0.28 0.31 0.29 0.83 8.03 13.64 17.87 20.53 21.51 21.08 18.97 15.48 10.26 7.36 10.98 13.16 13.91 13.2 11.34 8.03 3.16 0.5 5.4 9.7 12.8 14.95 15.67 15.13 13.73 10.97 7.02 1.9 0.64 0.65 3.41 10.22 15.4 18.78 20.39 20.26 18.27 14.48 8.99 1.77 0.79 0.81 0.89 0.85 0.85 3.66 9.88 14.29 17.04 17.91 17.06 14.36 9.92 3.63 1.06 1 1.01 2.67 3.67 3.21 1.5 1.18 1.09 1.11 1.17 1.14 4.21 6.11 6.63 5.73 3.38 1.22 1.29 1.25 1.26 1.3 1.29 1.31
2.35 8.43 13.14 16.77 19.22 20.09 19.91 18.49 15.62 11.7 6.39 0.15 0.22 1.56 4.49 5.99 6.24 5.32 2.85 0.25 0.26 1.68 8.9 14.55 18.76 21.35 22.5 21.95 19.85 16.27 11.2 10.79 14.4 16.48 17.19 16.67 14.6 11.29 6.63 3.91 9.4 13.75 17.01 18.79 19.65 19.29 17.62 14.99 11.16 6.08 0.65 0.68 0.78 7.63 12.86 16.31 17.8 17.57 15.72 11.99 8.23 8.21 6.84 3.8 0.84 0.89 1.01 6.86 13.12 17.55 20.25 21.12 20.22 17.53 12.98 6.95 1.03 3.42 7.06 9.37 10.26 9.9 8.2 5.13 1.12 1.19 2.73 7.42 10.71 12.74 13.25 12.35 10.04 6.36 1.26 1.36 1.85 2.08 1.33 1.4
0.02 5.84 10.73 14.23 16.54 17.61 17.46 15.88 13.15 9.1 3.89 0.19 2.94 7.03 9.94 11.5 11.7 10.71 8.51 4.77 0.27 1.17 8.19 13.92 18.16 20.82 21.83 21.38 19.35 15.7 10.52 12.84 16.34 18.51 19.3 18.67 16.67 13.29 8.65 6.77 12.34 16.53 19.76 21.72 22.47 22.13 20.59 17.89 14 8.91 2.72 0.68 0.7 3.36 8.51 11.85 13.46 13.34 11.29 12.69 14.11 14.21 12.77 9.87 5.4 0.93 0.93 8.12 14.37 18.87 21.66 22.45 21.7 18.98 14.47 8.26 3.8 8.76 12.4 14.63 15.6 15.29 13.59 10.54 6.05 1.75 7.91 12.66 16.06 17.84 18.41 17.59 15.17 11.51 6.31 6.56 8.3 8.65 7.66 5.24
0.01 1.97 6.83 10.37 12.77 13.76 13.53 12.16 9.43 5.46 0.14 1.66 7.24 11.35 14.22 15.8 16.04 15.03 12.74 9.02 4.73 7.83 9.43 11.76 15.95 18.6 19.55 19.22 17.1 13.52 8.55 13.4 16.93 19.04 19.84 19.26 17.32 13.95 9.22 8.39 13.99 18.32 21.47 23.37 24.17 23.84 22.23 19.54 15.66 10.52 4.25 0.71 0.73 0.73 2.35 5.69 7.21 9.8 14.2 17.18 18.69 18.69 17.25 14.23 9.89 3.96 0.96 7.77 14.03 18.58 21.16 22.1 21.15 18.54 14.16 7.83 7.84 12.82 16.38 18.78 19.64 19.38 17.57 14.51 10.09 5.61 11.63 16.37 19.77 21.67 22.1 21.25 18.97 15.23 10.12 11.8 13.32 13.85 12.87 10.42
0.01 0.04 1.74 5.31 7.71 8.68 8.55 7.03 4.24 1.73 1.41 4.64 10.1 14.32 17.25 18.79 18.99 17.96 15.62 11.97 10.2 13.17 14.71 14.93 13.92 14.79 15.98 15.38 13.36 9.75 7.73 12.62 16.14 18.33 19.06 18.44 16.48 13.23 8.41 9.01 14.52 18.87 22.02 23.98 24.68 24.31 22.79 20.14 16.26 11.16 4.91 0.8 0.73 0.74 0.76 0.86 6.83 12.76 17.22 20.27 21.61 21.74 20.21 17.37 12.88 7 0.93 5.52 11.82 16.18 18.96 19.92 19 16.31 11.89 5.6 10.44 15.48 19.05 21.45 22.29 22.01 20.18 17.2 12.69 7.85 14.01 18.73 22.04 24.01 24.51 23.63 21.33 17.6 12.59 15.46 17.3 17.63 16.49 14.18
0.05 0.05 0.1 0.05 1.37 2.25 2.28 5.83 7.91 8.86 8.37 6.76 11.7 15.96 18.78 20.4 20.57 19.57 17.3 13.56 14.13 17.08 18.73 18.95 17.99 15.74 12 10.08 8.07 4.51 5.61 10.59 14.04 16.23 17.1 16.31 14.5 11.08 6.35 8.32 13.81 18.13 21.26 23.36 24.05 23.68 22.17 19.36 15.38 10.48 4.25 0.85 0.75 0.76 0.78 1 8.43 14.35 18.84 21.6 23.16 23.19 21.76 18.85 14.46 8.56 1.11 1.63 7.89 12.36 15.1 15.9 14.93 12.45 7.96 5.47 11.79 16.79 20.43 22.76 23.67 23.23 21.55 18.53 14.06 8.88 14.95 19.75 23.08 24.92 25.47 24.56 22.35 18.58 14.79 17.87 19.65 20.08 19.03 16.58
0.01 0.02 0.04 0.11 0.13 3.46 8.19 11.47 13.72 14.5 14.24 12.43 12.1 16.19 19.12 20.64 20.93 19.89 17.66 13.86 16.9 19.81 21.46 21.69 20.66 18.39 14.58 9.55 3.29 0.48 2.17 6.99 10.61 12.72 13.46 12.85 10.9 7.6 2.83 6.5 12.07 16.37 19.44 21.35 22.25 21.87 20.28 17.56 13.62 9.56 9.12 7.55 4.84 0.78 0.79 1.08 8.55 14.4 18.82 21.87 23.33 23.31 21.86 18.88 14.48 8.49 1.19 1.04 2.12 6.61 9.35 10.2 9.29 6.63 2.17 5.39 11.74 16.72 20.35 22.75 23.66 23.19 21.59 18.54 14.11 8.38 14.62 19.22 22.6 24.43 24.99 24.09 21.9 18.07 15.74 18.94 20.48 21.07 20.05 17.51
0.01 0.02 0.04 0.06 2.08 8.07 12.63 16.03 18.19 19.04 18.7 16.91 14.02 15.22 18.07 19.68 19.91 18.89 16.57 13.93 18.21 21.14 22.71 23.06 22.07 19.61 15.98 10.99 4.67 0.44 0.47 2.09 5.73 7.81 8.56 7.91 5.96 2.6 0.57 3.56 9.01 13.24 16.49 18.35 19.32 18.87 17.29 14.61 14.22 15.11 14.72 13.14 10.28 6.14 0.91 0.83 6.99 12.96 17.45 20.41 21.92 21.9 20.47 17.53 13.08 7.17 1.01 1.06 1.05 1.1 1.77 2.61 1.73 1.09 1.15 4.13 10.47 15.42 18.96 21.33 22.26 21.94 20.2 17.15 12.71 7.09 12.68 17.44 20.68 22.77 23.13 22.37 20.06 16.13 15.36 18.59 20.25 20.61 19.66 17.22
0.01 0.02 0.04 0.05 5.33 11.39 15.86 19.25 21.39 22.24 21.9 20.22 17.21 13.17 15.81 17.41 17.68 16.7 14.34 13.82 18.24 21.12 22.71 23.06 21.95 19.72 16.07 10.93 4.7 0.49 0.46 0.48 0.49 1.51 2.42 1.75 0.6 0.58 0.59 0.6 4.88 9.18 12.21 14.27 15.07 14.65 13.19 16.41 18.62 19.51 19.06 17.41 14.58 10.53 5.15 0.85 4.09 10.05 14.37 17.4 19.04 18.96 17.51 14.59 10.21 4.35 1.01 1.02 1.09 1.06 1.07 1.09 1.1 1.17 1.15 1.43 7.8 12.78 16.33 18.69 19.61 19.27 17.49 14.4 10.03 5.45 9.46 14.13 17.42 19.4 19.91 19.06 16.76 12.93 13.66 16.83 18.61 18.93 17.83 15.57
0.04 0.02 0.08 0.12 7.25 13.2 17.9 21.37 23.38 24.22 23.8 22.23 19.25 15.01 12.2 13.79 14.07 13.03 10.77 12.6 16.81 19.78 21.55 21.73 20.75 18.32 14.66 9.7 3.38 0.46 0.57 0.59 0.51 0.6 0.54 0.55 0.62 0.62 0.6 0.61 0.64 3.82 6.96 8.88 9.76 11.65 16.2 19.41 21.69 22.58 22.17 20.47 17.7 13.54 8.24 1.59 0.91 5.69 10.08 13.03 14.58 14.56 13.15 10.14 5.83 1.03 1.12 1.07 1.06 1.1 1.12 1.13 1.12 1.15 1.2 1.2 3.81 8.72 12.34 14.65 15.57 15.27 13.48 10.42 9.44 10.96 10.76 9.52 12.81 14.76 15.3 14.41 12.08 8.42 10.53 13.68 15.49 15.9 14.82 12.49
0.07 0.02 0.04 0.79 7.97 13.91 18.6 21.98 24.21 25.02 24.62 22.91 19.96 15.76 10.33 8.94 9.16 8.17 5.83 9.96 14.34 17.21 18.92 19.21 18.04 15.77 12.03 6.98 0.67 0.47 0.48 0.5 0.52 0.54 1.3 3.72 4.33 3.36 0.66 0.63 0.64 0.66 0.67 2.45 7.55 13.37 18 21.34 23.52 24.2 23.93 22.32 19.48 15.25 10.02 3.47 4.11 7.65 9.35 9.21 8.84 8.82 7.31 4.37 1.02 1.03 1.09 1.11 1.14 1.11 1.13 1.13 1.14 1.16 1.18 1.19 1.21 3.32 6.99 9.24 10.23 9.81 8.08 10.24 13.24 14.72 14.59 12.89 9.48 8.71 9.19 8.28 5.88 2.79 9.29 14.11 17.3 18.85 18.86 17.31
0.06 0.02 0.04 0.18 7.42 13.42 18.03 21.47 23.57 24.47 24 22.29 19.41 15.29 9.76 2.95 3.02 2.05 0.49 6.05 10.35 13.15 14.88 15.1 14.16 11.83 8.13 3.07 0.49 0.48 0.49 0.57 0.53 4.67 8.71 11.05 11.86 10.79 7.87 3.35 0.74 0.67 0.69 1.06 8.22 13.85 18.5 21.96 23.94 24.89 24.53 22.89 20.03 15.97 10.57 4.09 9.32 12.91 14.46 14.38 12.48 8.81 3.44 1.02 1.05 1.05 1.09 1.09 1.1 1.2 1.18 2.37 2.76 1.72 1.2 1.21 1.31 1.28 1.29 2.51 3.54 3.13 7.73 12.43 15.53 17 16.95 15.17 11.67 6.75 1.72 1.49 1.54 6.97 13.46 18.23 21.42 22.98 23.05 21.57
0.01 0.07 0.04 0.06 5.53 11.45 16.22 19.57 21.72 22.6 22.21 20.5 17.56 13.35 7.92 1.18 0.38 0.29 0.41 0.78 4.99 7.93 9.59 9.89 8.87 6.61 2.8 0.46 0.58 0.51 0.51 0.52 4.37 10.28 14.48 16.84 17.6 16.49 13.59 9.06 2.74 0.69 0.78 0.76 7.42 13.32 17.96 21.19 23.33 24.18 23.92 22.19 19.3 15.28 9.91 7.45 12.68 16.1 17.85 17.79 15.81 12.14 6.85 1.04 1.1 1.09 1.09 1.11 1.12 2.72 5.91 7.75 8.17 7.12 4.51 1.23 1.25 1.29 1.34 1.31 1.31 1.96 8.21 13 16.11 17.55 17.49 15.72 12.31 7.28 1.47 1.48 1.5 9.62 16.03 20.7 24.05 25.77 25.64 24.04
0.01 0.03 0.08 0.09 2.54 8.39 13.05 16.44 18.58 19.57 19.04 17.37 14.52 10.23 4.76 0.31 0.28 0.36 0.43 0.34 0.37 1.27 2.93 3.27 2.29 0.44 0.5 0.54 0.49 0.5 0.52 0.67 8.32 14.23 18.38 20.91 21.57 20.47 17.51 13 6.65 0.78 0.76 0.79 5.6 11.42 15.98 19.3 21.46 22.26 22.02 20.31 17.5 13.33 8.07 9 14.2 17.82 19.39 19.15 17.35 13.76 8.33 1.11 1.09 1.12 1.2 1.13 1.77 6.49 9.84 11.66 12.04 10.95 8.47 4.6 1.31 1.29 1.3 1.32 1.38 1.35 7.28 11.9 15.02 16.57 16.38 14.63 11.23 6.28 1.49 1.57 2.4 10.48 17.02 21.72 25.11 26.58 26.55 25.1
0.01 0.05 0.06 0.13 0.08 4.02 8.68 12.16 14.22 15.07 14.74 13.12 10.06 5.86 0.37 0.35 0.29 0.34 0.32 0.39 0.35 0.43 0.4 1.31 4.61 6.72 7.7 7.37 5.87 3.15 0.53 2.78 10.5 16.49 20.66 23.05 23.8 22.63 19.87 15.27 8.94 0.87 0.82 0.76 5.35 9.09 12.84 16.11 18.34 19.12 18.76 17.03 14.29 10.17 4.87 8.91 14.1 17.5 19.18 19.09 17.23 13.59 8.09 7.65 6.46 4.17 1.13 1.25 4.2 9.03 12.32 14.13 14.56 13.42 10.87 7.01 1.5 1.31 1.33 1.34 1.39 1.37 4.56 9.38 12.48 13.86 13.79 12.07 8.65 3.62 1.52 1.53 1.91 9.87 16.35 21.18 24.38 25.95 26.02 24.46
0.07 2.58 5.83 7.44 7.24 5.73 3.09 6.51 8.59 9.55 9.01 7.4 4.52 0.27 0.26 0.27 0.36 0.38 0.33 0.38 0.36 0.38 2.69 7.4 10.69 12.76 13.83 13.43 12 9.2 5.23 3.31 10.99 16.87 21.15 23.52 24.22 23.2 20.24 15.75 9.48 1.3 0.74 4.56 9.43 13.25 15.63 17.02 16.91 15.77 14.41 12.78 9.91 6.03 6.69 6.93 12.04 15.5 17.17 17.16 15.13 12.68 13.74 13.76 12.63 10.05 6.66 1.89 5.26 10.04 13.35 15.08 15.51 14.44 11.93 8.05 2.66 1.33 1.35 1.36 1.39 1.4 1.41 5.11 8.12 9.6 9.6 7.71 4.43 1.53 1.54 1.6 1.6 7.56 14.08 18.98 22.19 23.7 23.75 22.09
4.2 8.93 12.14 13.82 13.81 12.03 8.83 3.9 1.7 2.52 2.08 0.57 0.22 0.24 0.26 0.28 0.3 0.33 0.33 0.39 0.37 1.88 7.67 12.21 15.61 17.66 18.7 18.41 16.85 14.15 10.26 4.96 9.68 15.59 19.85 22.27 22.94 21.85 18.99 14.46 8.09 0.74 1.34 7.36 12.39 16.06 18.49 19.88 19.93 18.72 16.37 12.78 10.49 12.52 13.28 12.57 10.72 11.81 13.38 13.33 15.26 17.57 18.67 18.67 17.4 15.06 11.44 6.87 4.83 9.57 12.82 14.69 15.13 13.99 11.5 7.51 2.22 1.35 1.47 1.39 1.4 1.42 1.51 1.45 2.17 3.75 3.61 1.89 1.53 1.55 1.6 1.58 1.62 3.83 10.19 15.11 18.25 19.93 19.86 18.35
9.04 13.72 16.9 18.62 18.52 17 13.54 8.61 2.17 0.19 0.19 0.21 0.23 0.26 0.27 0.28 0.37 0.32 0.37 0.45 0.38 5.53 11.42 15.9 19.3 21.36 22.33 21.92 20.52 17.76 13.91 8.6 6.7 12.54 16.85 19.26 19.94 18.73 16.06 11.5 5.04 0.75 3.15 9.18 14.17 17.8 20.28 21.51 21.59 20.46 18.09 14.54 15.71 17.72 18.37 17.76 15.78 12.54 11.12 15.61 19.08 21.27 22.39 22.4 21.06 18.79 15.2 10.48 4.72 7.67 10.95 12.77 13.14 12.12 9.62 5.7 1.36 1.43 1.39 1.41 1.46 1.44 1.54 1.54 1.49 1.51 1.54 1.57 1.57 1.6 1.59 1.61 1.62 1.64 4.81 9.53 12.78 14.48 14.41 12.84
12.06 16.84 20.12 21.74 21.69 20 16.71 11.92 5.32 0.19 0.2 0.21 0.24 0.25 0.3 0.37 0.32 0.33 0.34 0.41 1 7.96 13.76 18.35 21.71 23.81 24.74 24.4 22.97 20.26 16.38 11.16 4.8 7.86 12.07 14.47 15.16 14.09 11.3 6.66 0.81 0.77 3.55 9.58 14.65 18.26 20.91 22.16 22.19 20.91 18.66 16.05 19.54 21.57 22.24 21.54 19.68 16.35 13.56 18.17 21.63 23.99 24.96 24.86 23.56 21.24 17.82 13.08 7.23 4.41 7.67 9.49 9.88 8.83 6.32 2.38 1.38 1.42 1.42 1.5 1.45 1.47 1.57 1.5 1.52 1.65 1.55 1.62 1.58 1.6 1.61 1.63 1.69 1.73 1.79 2.54 5.72 7.36 7.4 5.7
13.52 18.41 21.68 23.21 23.2 21.6 18.24 13.42 6.85 0.18 0.21 0.22 0.29 0.26 0.28 0.29 0.31 0.33 0.38 0.39 2.18 9.24 14.96 19.57 22.91 25.14 26.03 25.8 24.19 21.41 17.59 12.41 6.06 1.27 5.59 8 8.59 7.58 4.7 0.74 0.76 0.78 2.88 8.95 13.81 17.58 20.09 21.35 21.49 20.23 17.9 18.65 21.9 24 24.77 24.08 22.12 18.99 15.06 19.57 22.96 25.23 26.35 26.24 24.95 22.8 19.09 14.52 8.54 8.63 8.41 6.79 5.08 3.98 1.45 1.4 1.4 1.42 1.45 1.49 1.51 1.5 1.58 1.53 1.58 1.56 1.6 1.59 1.64 1.62 1.64 1.66 1.71 1.69 1.73 1.72 1.77 1.75 1.77 1.83
13.44 18.4 21.52 23.18 23.11 21.5 18.18 13.38 6.79 0.18 0.26 0.23 0.28 0.3 0.28 0.33 0.32 0.34 0.37 0.38 2.26 9.23 14.97 19.52 22.93 24.99 26.02 25.74 24.19 21.4 17.61 12.42 6.03 0.66 0.66 0.68 0.7 0.73 0.74 0.84 0.78 0.82 0.85 6.95 11.94 15.64 18.07 19.43 19.48 18.31 15.94 19.79 23.16 25.23 25.91 25.28 23.41 20.22 15.51 19.84 23.28 25.37 26.58 26.46 25.25 22.87 19.42 14.73 11.08 12.8 12.7 10.98 7.56 2.53 1.39 1.41 1.46 1.45 1.46 1.57 1.49 1.51 1.63 1.55 1.56 1.6 1.6 1.61 1.67 1.65 1.68 1.76 1.77 1.78 1.76 1.75 1.76 1.78 1.83 1.81
11.7 16.59 19.96 21.42 21.41 19.77 16.43 11.52 5.03 0.19 0.21 0.23 0.25 0.27 0.29 0.34 0.36 0.37 1.19 2 1.06 7.94 13.82 18.41 21.71 23.85 24.76 24.54 23.03 20.34 16.23 11.16 4.95 0.66 0.72 0.69 0.71 0.73 0.75 0.77 0.79 0.81 0.83 3.88 8.82 12.51 14.94 16.3 16.37 15.1 14.93 19.68 23.02 25.05 25.86 25.23 23.25 19.96 15.52 18.88 22.34 24.66 25.77 25.62 24.43 21.97 18.51 13.8 13.61 15.27 15.21 13.5 10.1 4.93 1.41 1.43 1.45 1.46 2.29 5.9 8.04 8.8 8.02 6.01 2.33 1.6 1.76 1.68 1.65 1.67 1.69 1.7 1.8 1.73 1.75 1.77 1.78 1.8 1.82 1.83
8.39 13.33 16.47 17.96 18.02 16.38 13.14 8.26 1.77 0.19 0.21 0.23 0.25 0.27 0.32 0.31 0.36 5.01 7.97 8.94 7.95 5.54 11.52 15.87 19.28 21.47 22.39 22.02 20.52 17.86 13.92 8.81 2.49 0.67 0.69 0.71 0.74 0.84 0.78 0.79 0.81 0.82 0.84 0.87 4.45 8.12 10.63 11.94 12.03 10.76 13.42 18.18 21.49 23.56 24.29 23.69 21.74 18.57 13.87 16.92 20.3 22.47 23.67 23.57 22.34 19.91 16.43 11.69 14.54 16.07 16.03 14.29 11.04 5.81 1.45 1.45 1.47 3.16 8.2 11.92 14.09 14.9 14.05 11.97 8.34 3.23 1.64 1.69 1.68 1.69 1.71 1.73 1.78 1.81 1.78 1.79 1.81 1.83 1.85 1.96
3.49 8.28 11.49 13.14 13.21 11.48 8.23 3.22 0.17 0.19 0.21 0.23 0.25 0.35 0.3 0.32 5.08 10.07 12.93 13.85 12.98 9.98 7.69 12.41 15.7 17.89 18.71 18.57 16.99 14.35 10.37 5.14 1.61 4.5 6.26 6.87 6.31 4.62 1.85 0.8 0.86 0.88 0.85 0.87 0.89 2.61 5.11 6.34 6.37 5.23 10.63 15.37 18.72 20.88 21.53 21.01 19.05 15.7 11.11 13.52 17.06 19.23 20.32 20.33 19.11 16.69 13.24 10.35 13.66 15.28 15.25 13.47 10.17 4.95 1.45 1.56 1.49 7.72 12.79 16.51 18.69 19.36 18.71 16.42 12.87 7.81 1.66 1.69 1.77 1.72 1.73 1.81 1.84 1.78 1.85 1.82 1.86 1.88 1.9 1.88
0.01 1.71 4.91 6.47 6.47 4.8 1.57 0.18 0.18 0.2 0.22 0.24 0.26 0.28 0.3 1.34 8.04 12.92 15.84 16.86 15.82 12.91 8.03 7.55 10.83 13.04 13.84 13.57 12.08 9.45 5.47 3.31 7.23 10.07 11.92 12.51 11.93 10.24 7.39 3.34 0.83 0.9 0.87 0.92 0.94 0.93 0.95 0.99 0.99 1.05 6.61 11.3 14.64 16.68 17.46 16.77 14.92 11.67 7.01 9.17 12.69 14.94 15.97 15.99 14.75 12.22 8.78 7.83 10.99 12.71 12.66 11 7.52 2.57 1.48 1.61 4.13 10.72 15.95 19.57 21.81 22.56 21.89 19.59 15.96 10.83 4.27 1.73 1.75 1.77 1.8 1.78 1.79 1.82 1.85 1.88 1.87 1.87 1.89 1.92
0.04 0.06 0.05 0.07 0.09 0.12 0.16 0.18 0.18 0.25 0.26 0.24 0.26 0.28 0.3 2.42 9.17 13.99 16.79 17.81 16.93 14 9.04 2.27 4.75 6.95 7.89 7.49 6.12 3.33 2.51 7.82 11.75 14.62 16.35 17.06 16.44 14.65 11.78 7.84 2.81 0.92 0.88 0.9 0.92 0.94 0.96 0.98 1 1.02 1.17 5.89 9.2 11.31 11.99 11.36 9.42 8.81 11.41 12.37 11.89 9.71 10.48 10.48 9.2 6.78 3.26 3.45 6.92 8.51 8.52 6.72 3.35 1.48 1.5 1.52 5.8 12.45 17.55 21.23 23.44 24.23 23.45 21.19 17.63 12.61 5.95 1.76 1.75 1.82 1.78 1.88 1.92 1.83 1.85 1.86 2.07 5.97 8.25 8.81
0.06 0.05 0.05 0.07 0.1 0.14 0.14 0.16 0.18 0.26 0.3 3.46 5.28 5.88 4.99 2.93 8.2 13.1 16.04 16.95 16 13.02 8.22 1.39 0.52 0.58 0.6 0.58 0.65 0.63 5.97 11.21 15.19 18.04 19.73 20.24 19.75 18.05 15.2 11.31 6.17 0.87 0.89 0.96 0.94 1.03 1.01 1.08 1.02 1.04 1.1 1.13 2.48 4.41 5.17 4.56 8.12 12.22 14.84 15.84 15.28 13.15 9.56 4.38 2.47 1.35 1.37 1.39 1.42 2.83 2.73 1.46 1.48 1.5 1.52 1.56 6.03 12.68 17.75 21.33 23.62 24.38 23.6 21.34 17.82 12.81 6.12 1.77 1.77 1.87 1.83 1.82 1.84 1.9 1.87 2.28 8.01 11.93 14.23 14.8
0.01 0.07 0.05 0.11 0.1 0.17 0.14 0.16 0.21 0.92 5.5 8.83 10.73 11.28 10.42 8.32 5.32 10.26 13.22 14.07 13.19 10.22 5.33 0.53 0.64 0.56 0.58 0.6 0.61 1.89 8.13 13.34 17.34 20.29 21.93 22.49 21.91 20.27 17.53 13.47 8.46 2.16 0.91 0.93 0.95 0.97 1.03 1.05 1.03 1.13 1.12 1.2 3.34 4.04 2.94 4.46 10.07 14.06 16.65 17.62 17.09 15.01 11.31 6.16 1.39 1.37 1.43 1.49 1.42 1.44 1.46 1.51 1.5 1.52 1.56 1.56 4.69 11.31 16.48 20.04 22.3 22.96 22.37 20.14 16.52 11.4 4.79 1.8 1.8 1.81 1.84 1.85 1.86 1.88 1.91 6.48 12.23 16.28 18.51 19.03
0.01 0.03 0.07 0.08 0.13 0.12 0.14 0.17 0.24 4.96 9.51 12.89 14.85 15.33 14.52 12.37 8.86 5.42 8.27 9.34 8.34 5.43 0.59 0.54 0.55 0.56 0.63 0.6 0.62 2.98 9.32 14.47 18.41 21.24 23.03 23.7 22.98 21.36 18.59 14.5 9.47 3.24 3.41 5.79 6.54 5.56 2.8 1.05 1.11 1.07 4.74 8.43 10.75 11.25 10.34 7.93 10.24 14.33 16.84 17.81 17.37 15.39 11.6 6.42 1.39 1.4 1.41 1.52 1.46 1.52 1.48 1.54 1.52 1.54 1.58 1.61 2.02 8.55 13.64 17.38 19.63 20.32 19.55 17.47 13.75 8.67 2.17 1.8 1.82 1.83 1.85 1.88 1.89 1.9 1.92 9.12 14.87 18.81 21.01 21.56
0.01 0.09 0.06 0.08 0.12 0.13 0.15 0.19 1.55 7.66 12.19 15.56 17.4 18.02 17.31 15.12 11.46 6.62 1.59 2.56 1.58 0.53 0.54 0.52 0.55 0.57 0.59 0.61 0.63 2.95 9.24 14.22 18.38 21.23 22.97 23.61 22.94 21.28 18.55 14.5 9.4 6.23 10.35 12.76 13.54 12.49 9.83 5.43 1.1 5.1 10.49 14.22 16.42 17.04 16.16 13.68 9.6 13.11 15.63 16.65 16.19 13.96 10.34 5.31 1.39 1.41 1.45 1.44 1.46 1.48 1.55 1.52 1.54 2.99 3.85 3.37 1.62 4.36 9.47 13.19 15.43 16.1 15.49 13.19 9.62 4.51 1.82 1.83 1.86 1.85 1.87 1.91 1.94 1.93 2.48 9.88 15.58 19.64 21.91 22.4
0.03 0.03 0.06 0.09 0.1 2.89 5.88 7.47 7.75 8.9 13.55 16.85 18.73 19.34 18.58 16.37 12.81 7.84 2.85 3.28 2.41 0.58 0.51 0.53 0.59 0.58 0.6 0.62 0.72 1.67 8.05 13.1 17.19 20.07 21.77 22.22 21.74 20.23 17.28 13.29 8.18 11.51 15.57 18.06 18.76 17.75 15.02 10.69 4.53 9.36 14.76 18.41 20.64 21.38 20.43 17.76 13.79 10.37 12.83 13.81 13.33 11.31 7.53 2.54 1.42 1.42 1.44 1.47 1.54 1.5 1.52 3.03 6.48 8.58 9.41 8.91 7.08 3.87 3.8 7.52 9.71 10.44 9.83 7.6 3.91 1.88 1.83 1.86 1.88 1.92 1.91 1.91 1.93 1.95 2.03 8.97 14.62 18.59 20.93 21.51
0.09 0.03 0.13 0.08 5.04 9.26 12.24 13.86 14.08 13.12 13.57 16.8 18.73 19.31 18.47 16.27 12.78 7.84 9.45 9.89 9.04 7.25 4.23 0.61 0.56 0.61 0.61 0.63 0.71 0.69 5.63 10.86 14.81 17.8 19.39 19.98 19.49 17.66 14.96 11.01 9.22 15.07 19.17 21.59 22.39 21.32 18.65 14.15 8.11 12.02 17.28 21.09 23.3 23.82 23.05 20.56 16.5 10.9 8.58 9.49 8.98 6.87 3.25 1.4 1.42 1.44 1.56 1.48 1.5 1.55 2.57 7.21 10.64 12.85 13.54 13.1 11.23 8.13 3.58 1.73 2.72 3.36 2.65 1.79 1.81 1.89 1.86 1.88 1.89 1.9 1.92 1.93 1.97 2 1.99 6.31 11.96 16.07 18.25 18.86
1.9 1.74 0.08 4.29 9.94 14.25 17.24 18.88 19.12 18.01 15.72 15.37 17.39 17.86 17.04 14.91 11.38 13.35 14.91 15.25 14.56 12.7 9.52 5.4 0.57 0.67 0.61 0.64 0.66 0.77 2.14 7.36 11.47 14.23 15.97 16.59 16.01 14.35 11.48 7.5 11.07 16.89 21.14 23.48 24.17 23.12 20.53 16.11 10.01 13.12 18.43 22.19 24.29 24.9 24.02 21.54 17.58 11.83 4.81 3.68 3.07 1.41 1.4 1.42 1.47 1.48 1.49 1.5 1.52 1.59 5.47 10.19 13.57 15.72 16.57 15.93 14.16 10.96 6.61 1.77 1.78 1.77 1.79 1.81 1.83 1.85 1.88 1.88 1.9 1.94 1.94 2.06 2 2.01 2.03 2.06 7.61 11.66 13.97 14.55
8.7 8.53 6.86 8.1 13.66 18.01 20.99 22.56 22.87 21.75 19.38 15.72 14.5 15.02 14.28 12.05 14.84 17.54 19.04 19.56 18.66 16.92 13.89 9.64 4.35 0.66 0.88 2.36 2.57 1.84 0.71 2.78 6.73 9.67 11.41 11.94 11.44 9.7 6.83 3.65 11.08 17.02 21.19 23.62 24.24 23.39 20.61 16.21 10.17 12.61 17.96 21.74 23.89 24.44 23.52 21.18 17.07 11.54 4.4 1.37 1.41 1.4 1.42 1.48 1.48 1.54 1.51 1.52 1.6 1.56 6.96 11.76 15.22 17.29 18.14 17.66 15.86 12.67 8.17 2.33 1.79 2.62 2.33 1.83 1.85 1.87 1.89 1.91 2.04 2.01 1.96 2.01 2.03 2.01 2.03 2.07 2.07 5.55 7.82 8.41
14.01 13.77 12.1 10.32 16.1 20.26 23.28 24.91 25.24 24.18 21.7 18.05 12.94 10.9 10.14 14.18 18.06 20.78 22.18 22.64 21.92 20.01 16.89 12.79 7.39 5.25 7.73 9.29 9.57 8.73 6.83 3.83 1 3.86 5.59 6.23 5.71 7.96 10.3 11.13 10.32 15.49 19.7 22.05 22.68 21.75 19.05 14.65 8.49 10.58 15.97 19.67 21.91 22.5 21.49 19.15 15.21 9.44 2.35 1.39 1.39 1.41 1.43 1.48 1.48 1.53 1.54 1.54 1.56 1.64 7.38 12.04 15.5 17.58 18.39 17.93 16.07 12.89 8.36 6.16 9.11 10.43 10.03 7.7 3.88 1.96 1.91 1.93 1.95 1.97 2.03 2.06 2.07 2.11 2.08 2.07 2.13 2.16 2.12 2.14
17.83 17.61 15.82 12.8 17.03 21.3 24.38 25.94 26.22 25.11 22.8 19.07 14.07 7.6 11.14 16.13 19.98 22.72 24.26 24.57 23.95 22.06 18.92 14.78 9.52 10.95 13.56 15.03 15.44 14.56 12.65 9.59 5.41 0.83 0.83 4.55 10.26 14.11 16.64 17.46 16.62 14.16 16.35 18.75 19.49 18.45 15.88 11.4 5.21 6.99 12.24 16.03 18.19 18.92 17.93 15.5 11.53 5.93 1.39 1.39 1.41 1.45 1.51 1.52 1.54 1.52 1.54 1.63 1.58 1.6 6.27 10.99 14.46 16.52 17.43 16.9 15.11 11.79 7.4 12.06 15.2 16.48 15.91 13.91 9.96 4.3 1.93 1.95 1.97 2.01 2 2.02 2.06 2.12 2.17 2.09 2.14 2.17 2.15 2.16
20.24 20.03 18.42 15.22 16.7 21.07 23.97 25.72 25.86 24.89 22.47 18.77 13.63 7.29 12.01 16.88 20.82 23.49 25.09 25.47 24.71 22.78 19.76 15.64 12.04 15.71 18.32 19.81 20.08 19.34 17.34 14.27 10.19 4.88 2.01 9.13 14.93 18.77 21.29 22.1 21.26 18.87 14.77 13.87 14.51 13.51 10.88 6.39 1.2 1.87 7.21 10.98 13.21 13.76 12.84 11.61 8.88 4.43 1.38 1.41 1.43 1.49 1.53 1.49 1.52 1.53 1.6 1.66 1.59 1.66 3.94 8.68 12.15 14.28 15.04 14.54 12.65 9.55 11.59 16.37 19.49 20.83 20.31 18.07 14.16 8.64 1.95 1.99 1.99 2.01 2.05 2.05 2.15 2.08 2.1 2.11 2.13 2.15 2.19 2.18
21.27 20.89 19.21 16.2 15.05 19.38 22.31 23.96 24.21 23.13 20.77 17.16 12.04 5.57 11.65 16.64 20.54 23.25 24.79 25.13 24.39 22.59 19.48 15.28 15.57 19.32 21.87 23.36 23.55 22.92 20.89 17.84 13.7 8.49 4.95 12.19 17.87 21.94 24.34 25.05 24.27 21.81 17.79 12.03 7.78 6.92 4.22 1.15 1.17 1.2 2.2 8.77 13.31 16.35 17.39 16.53 13.88 9.39 3.11 1.43 1.47 1.57 1.49 5.1 7.24 7.79 6.76 4.11 1.62 1.63 1.68 4.96 8.52 10.54 11.35 10.72 9.04 7.81 14.29 19.06 22.02 23.3 22.93 20.78 16.8 11.15 3.76 1.99 2.1 2.03 2.06 2.09 2.08 2.1 2.16 2.21 2.16 2.17 2.19 2.27
20.64 20.52 18.81 15.69 12.1 16.35 19.37 21.06 21.31 20.23 17.88 14.07 9.09 5.44 10.24 15.24 19.05 21.71 23.32 23.61 22.88 20.92 18.07 13.87 18.13 21.83 24.4 25.77 26.16 25.4 23.33 20.28 16.17 10.88 6.36 13.58 19.18 23.27 25.73 26.47 25.69 23.2 19.17 13.41 6.11 1.12 1.18 1.16 1.19 1.24 5.43 11.82 16.59 19.41 20.37 19.65 16.88 12.49 6.17 1.44 1.5 1.48 6.3 10.02 12.25 12.68 11.59 9.03 5.01 1.65 1.72 1.71 3.39 5.58 6.46 5.83 3.98 8.67 15.1 19.86 22.84 24.16 23.69 21.53 17.65 11.93 4.64 2.04 2.03 2.08 2.07 2.12 2.1 2.12 2.14 2.17 2.18 2.21 2.31 2.28
18.66 18.47 16.89 13.77 9.01 12.06 15.04 16.63 16.96 15.94 15.98 15.39 13.31 10.01 7.61 12.62 16.44 19.15 20.72 21.07 20.32 18.39 15.43 14.64 19.44 23.07 25.72 27.16 27.42 26.65 24.63 21.71 17.44 12.24 6.1 13.35 19.12 23.1 25.41 26.33 25.48 23.03 18.93 13.22 5.94 1.15 1.18 1.18 1.23 1.26 6.59 13.1 17.72 20.75 21.64 20.99 18.29 13.78 7.52 1.51 1.48 4.49 9.79 13.37 15.52 16.11 15.03 12.38 8.24 2.53 1.76 1.71 1.73 1.76 1.77 1.8 1.82 7.73 14.3 19.03 22.03 23.24 22.82 20.65 16.73 11.05 3.76 2.06 2.15 2.16 2.09 2.11 2.13 2.14 3.02 6.03 7.78 7.95 6.58 3.84
15.39 15.05 13.5 10.26 5.8 6.45 9.4 12.66 16.24 18.38 19.21 18.69 16.74 13.4 8.65 8.84 12.7 15.36 16.93 17.31 16.53 14.67 11.73 14.8 19.69 23.28 25.94 27.39 27.67 26.89 24.99 21.91 17.7 12.47 5.99 11.57 17.1 21.32 23.59 24.44 23.53 21.11 17.17 11.41 4.02 1.15 1.17 1.19 1.27 1.24 5.91 12.53 17.25 20.1 21.18 20.36 17.6 13.24 6.9 1.47 1.54 6.22 11.48 15.19 17.3 17.9 16.9 14.2 9.98 4.3 1.71 1.73 1.75 1.78 1.79 1.81 1.85 5.25 11.59 16.35 19.4 20.68 20.28 18.08 14.12 8.54 2.03 2.08 2.07 2.09 2.11 2.13 2.19 4.22 8.84 11.96 13.66 13.8 12.41 9.73
14.66 14.43 12.85 9.75 5.3 3.3 9.57 14.69 18.14 20.35 21.21 20.59 18.64 15.36 10.5 4.42 7.79 10.46 12.07 12.36 11.72 9.8 8.09 13.85 18.67 22.41 24.9 26.45 26.79 25.91 24.03 21.03 16.8 11.47 5.18 8.03 13.7 17.79 20.14 20.93 20.13 17.7 13.51 7.86 1.19 1.16 1.21 1.35 1.23 1.25 3.63 10.12 14.85 17.72 18.72 17.88 15.24 10.9 4.54 1.48 1.55 6.46 11.75 15.35 17.52 18.03 16.97 14.36 10.33 4.49 1.73 1.75 1.77 1.8 1.81 1.88 1.91 1.92 7.21 12.06 15.09 16.27 15.87 13.66 9.88 4.16 2.05 2.07 2.13 2.11 2.13 2.15 2.59 8.71 13.27 16.35 18.09 18.26 16.97 14.19
19.41 19.24 17.64 14.66 10.02 4.09 10.11 15.12 18.63 20.94 21.76 21.06 19.1 15.79 11.05 4.87 1.69 4.49 6.1 6.29 5.59 3.8 5.98 11.93 16.79 20.41 22.98 24.4 24.8 23.9 22.03 18.99 14.79 9.39 3.15 2.93 8.53 12.64 15.02 15.75 14.98 12.59 9.54 7.67 4.64 1.17 3.48 5.52 5.78 4.28 1.33 5.99 10.59 13.55 14.52 13.72 11.08 6.63 1.54 1.51 1.56 5.12 10.31 13.97 16.15 16.64 15.66 13.06 8.92 3.18 1.77 1.8 1.79 1.87 1.85 1.91 1.89 1.89 1.94 6.05 8.99 10.33 9.78 7.66 3.76 2.08 2.09 2.09 2.11 2.13 2.15 2.18 5.58 11.7 16.3 19.39 20.95 21.23 19.87 17.06
22.66 22.59 20.96 17.93 13.41 7.47 9.16 14.22 17.83 20.12 20.9 20.22 18.3 15.02 10.2 4.2 0.44 1.4 2.7 2.28 0.61 0.57 2.79 8.76 13.59 17.28 19.78 21.32 21.53 20.76 18.84 15.8 11.58 6.27 0.97 0.93 2.82 7.56 11.33 13.94 15.47 15.85 15.04 13.15 10.09 7.03 10.75 12.82 13 11.55 8.38 3.59 4.58 7.36 8.4 7.77 5.01 1.5 1.54 1.62 1.55 1.97 7.4 11.14 13.21 13.77 12.66 10.13 5.96 1.74 1.83 1.83 1.8 1.83 1.85 1.87 1.93 1.96 2 1.99 2.05 2.3 2.01 2.09 2.15 2.07 2.09 2.11 2.18 2.97 3 2.25 7.09 13.14 17.67 20.91 22.46 22.57 21.32 18.57
24.64 24.54 22.89 19.85 15.41 9.31 7.06 12 15.58 17.84 18.68 18.08 16.07 12.78 8.03 1.69 5.56 8.42 9.7 9.28 7.29 3.61 0.6 4.5 9.35 12.89 15.56 17.05 17.3 16.55 14.58 11.49 7.46 2.03 0.98 1.05 7 11.95 15.58 18.22 19.79 20.1 19.31 17.49 14.51 12.59 16.38 18.27 18.64 17.21 14.1 9.08 2.56 1.39 1.41 1.44 1.48 1.51 1.56 1.53 1.55 1.64 2.85 6.64 8.67 9.25 8.18 5.66 1.76 1.76 1.85 2.03 2.44 1.88 1.87 1.91 1.91 1.95 1.96 1.97 2.01 2.01 2.03 2.05 2.16 2.15 2.11 6.18 9.1 10.49 10.46 9.04 6.97 13.06 17.72 20.85 22.53 22.61 21.28 18.52
25.2 25 23.4 20.33 15.88 9.84 3.41 8.41 11.98 14.17 14.9 14.35 12.48 9.1 4.45 6.39 10.91 13.79 15.01 14.61 12.62 8.93 3.67 0.66 3.84 7.61 10.14 11.58 11.96 11.12 9.24 6.13 1.95 2.34 1.76 4.24 10.25 15.02 18.82 21.45 22.94 23.29 22.56 20.65 17.62 16.41 20.2 22.04 22.39 20.93 17.92 12.95 6.44 1.4 1.43 1.48 1.47 1.5 1.52 1.54 1.6 1.61 1.62 1.74 2.66 3.07 2.11 1.73 1.75 3.45 7.49 9.77 10.35 9.15 6.14 1.97 1.93 1.98 1.97 1.99 2.07 2.08 2.07 2.08 2.11 2.2 7.9 12.17 15.07 16.61 16.64 15.13 12.33 11.58 16.17 19.39 20.91 21.15 19.76 17.05
24.25 23.99 22.35 19.2 14.83 8.76 1.56 3.35 6.93 9.22 9.98 9.39 7.5 4.12 4.05 10.2 14.66 17.59 18.8 18.4 16.36 12.8 7.42 0.66 0.67 1.19 3.55 5.07 5.19 4.6 3.33 6.38 8.18 8.67 8.06 6.46 12.19 17.13 20.88 23.45 24.96 25.25 24.6 22.69 19.7 18.64 22.31 24.33 24.67 23.26 20.03 15.22 8.67 1.51 1.45 1.49 1.49 1.51 1.54 1.56 1.58 1.61 1.63 1.65 1.68 1.7 1.75 1.76 3.64 9.5 13.62 15.85 16.45 15.31 12.33 7.59 2.03 1.96 1.99 2.01 2.05 2.11 2.07 2.11 2.19 6.87 12.68 16.98 19.68 21.18 21.23 19.8 16.93 12.74 13.31 16.35 18.09 18.23 16.84 14.05
21.73 21.53 19.91 17.03 12.43 6.32 0.18 0.21 0.51 2.79 3.57 3.03 1.04 0.37 6.15 12.28 16.82 19.77 20.95 20.54 18.56 14.82 9.56 2.6 0.68 0.76 0.74 0.8 0.78 4.11 8.31 11.43 13.14 13.77 13.12 11.13 13.26 18.04 21.81 24.47 25.92 26.34 25.58 23.6 20.57 19.04 22.81 24.82 25.12 23.67 20.51 15.57 9.02 1.43 1.45 1.48 1.5 1.61 1.65 1.57 1.6 1.62 1.65 1.67 1.69 1.78 1.77 1.76 7.89 13.84 17.9 20.07 20.76 19.53 16.59 12 5.56 6.02 8.43 9.11 8.18 5.37 2.09 2.19 2.96 10.13 15.84 20.19 22.98 24.48 24.5 23.08 20.35 15.99 10.23 11.92 13.52 13.64 12.34 9.49
17.79 17.83 16 13 8.6 2.66 0.18 0.23 0.25 0.33 0.36 0.33 0.35 0.38 6.68 12.86 17.28 20.08 21.42 21.02 19.04 15.36 10.08 3.08 0.68 0.71 0.74 0.78 2.41 7.9 12.15 15.23 16.93 17.58 16.82 14.95 12.99 17.91 21.4 24.24 25.65 26.11 25.18 23.38 20.38 17.79 21.43 23.51 23.83 22.37 19.19 14.33 7.77 1.51 1.52 1.53 1.52 1.55 1.68 1.61 1.67 1.66 1.66 1.73 1.71 1.73 1.75 2.83 10.5 16.27 20.44 22.77 23.3 22.04 19.18 14.51 8.54 12.72 15.28 15.98 14.89 12.16 7.68 2.13 4.78 11.92 17.66 21.99 24.86 26.29 26.31 24.88 22.04 17.78 12.07 6.01 7.53 7.8 6.32 3.61
12.53 12.38 10.74 7.62 3.14 0.16 1.48 2.74 2.59 1.24 0.3 0.33 0.35 0.48 5.48 11.68 16.12 19.05 20.29 19.86 17.82 14.22 8.98 2.06 0.75 0.74 0.79 0.77 4.99 10.42 14.75 17.77 19.59 20.1 19.44 17.49 14.37 16.58 20.24 22.91 24.41 24.69 24.01 22.12 19.14 14.95 18.44 20.5 20.78 19.38 16.22 11.29 6.46 7.01 5.99 3.6 1.54 1.55 3.02 6.64 8.34 8.23 6.2 2.18 1.74 1.75 1.79 3.73 11.28 17.18 21.2 23.57 24.17 22.89 19.98 15.31 13.51 17.85 20.24 20.89 19.96 17.23 12.73 6.43 5.14 12.29 18.02 22.37 25.28 26.72 26.66 25.23 22.34 18.22 12.56 5.38 2.4 2.42 2.5 2.46
5.64 5.45 3.91 0.93 2.54 6.17 8.48 9.62 9.54 8.36 5.9 2.18 0.36 0.38 2.64 8.9 13.34 16.26 17.47 17.04 15.09 11.36 6.06 0.67 0.77 0.75 0.81 0.8 6.19 11.75 16.03 19.12 20.82 21.52 20.67 18.84 15.67 14.17 17.82 20.54 21.95 22.28 21.59 19.66 16.58 12.55 13.76 15.76 16 14.7 11.48 10.24 12.06 12.64 11.7 9.33 5.53 3.41 8.98 12.57 14.34 14.19 12.14 8.16 2.88 5.83 7.29 7.5 10.42 16.14 20.27 22.62 23.24 22.05 19.11 14.42 16.83 21 23.47 24.23 23.17 20.5 16.01 9.83 4.18 11.25 17.01 21.29 24.13 25.65 25.6 24.2 21.34 17.15 11.4 4.25 2.42 2.51 2.45 2.49
0.01 0.04 0.07 3.57 8.33 11.84 14.36 15.38 15.27 14.07 11.62 8 3.2 0.39 0.42 4.52 8.99 11.77 13.1 12.64 10.63 6.95 1.68 0.67 0.73 0.73 0.76 0.84 6.4 11.88 16.05 19.19 20.97 21.44 20.8 18.88 15.72 11.35 14.35 16.84 18.41 18.77 18.02 16.14 13.09 8.96 7.43 9.33 9.65 8.24 11.19 14.51 16.36 16.83 15.87 13.58 9.77 7.53 13.05 16.62 18.38 18.27 16.2 12.19 8.84 11.63 13.08 13.45 12.55 13.56 17.6 19.86 20.54 19.35 16.47 12.38 18.34 22.53 25.05 25.76 24.8 21.98 17.47 11.27 3.36 8.78 14.45 18.86 21.63 23.16 23.17 21.69 18.93 14.69 8.99 2.42 2.48 2.47 2.47 2.62
0.03 0.04 2.21 8.17 12.81 16.44 18.85 20 19.91 18.63 16.16 12.43 7.69 1.44 0.42 0.48 2.88 5.74 7.07 6.56 4.7 0.91 0.65 0.71 0.77 0.79 2.52 6.17 8.71 10.59 14.97 18.06 19.86 20.33 19.67 17.75 14.49 10.16 9.53 12.17 13.69 14.01 13.32 11.32 8.45 4.31 1.31 1.4 3.35 9.4 13.98 17.33 19.24 19.65 18.81 16.43 12.66 9.71 15.25 18.86 20.58 20.4 18.34 14.43 13.49 16.23 17.72 17.98 17.02 14.78 13.13 15.5 16.06 14.81 11.94 12.21 18.12 22.42 24.84 25.62 24.58 21.84 17.31 11.18 3.15 4.84 10.65 14.95 17.83 19.26 19.3 17.83 15.01 10.76 8.35 7.45 5.4 2.49 2.6 2.55
0.02 0.06 5.6 11.51 16.26 19.81 22.25 23.32 23.23 22.03 19.45 15.89 10.83 4.91 0.42 0.51 0.54 0.51 0.55 0.57 0.71 0.63 0.74 0.68 0.8 2.51 7.27 10.92 13.32 14.54 14.66 15.63 17.42 18.03 17.25 15.33 12.13 7.82 3.81 6.38 7.88 8.23 7.39 5.56 2.58 1.29 1.36 1.43 4.76 10.85 15.53 18.78 20.62 21.13 20.25 17.76 14.11 9.99 15.54 19.17 20.87 20.71 18.72 14.73 16.63 19.54 21.04 21.38 20.39 18.18 14.62 9.89 9.99 8.66 5.77 10.14 16.17 20.45 22.95 23.58 22.63 19.89 15.28 9.11 2.29 2.25 5.28 9.54 12.47 13.95 13.85 12.55 11.9 13.89 14.36 13.6 11.38 7.73 2.67 2.53
0.01 0.53 7.69 13.69 18.4 21.99 24.35 25.56 25.38 24.1 21.82 17.99 13.16 7.14 0.43 0.47 0.5 0.52 0.61 0.57 0.72 0.64 0.75 0.69 0.72 6.1 10.89 14.52 16.92 18.06 18.14 17.08 14.8 14.36 13.64 11.76 8.57 4.17 1.11 1.14 1.17 1.27 1.24 1.29 1.28 1.31 1.33 1.36 4.76 10.94 15.62 18.8 20.58 21.18 20.24 17.96 14.2 8.86 13.88 17.56 19.26 19.11 17.11 14.76 18.82 21.69 23.21 23.6 22.55 20.25 16.75 12.03 6.03 4.96 3.55 6.55 12.61 16.72 19.17 19.96 18.9 16.13 11.61 5.53 2.31 2.27 2.29 2.65 5.66 7.1 8.54 13.26 16.65 18.54 19.13 18.23 15.97 12.41 7.33 2.54
0.07 1.43 8.61 14.6 19.32 22.88 25.29 26.45 26.36 25.1 22.59 18.98 14.04 8.06 0.65 0.46 0.49 0.52 0.55 0.58 0.64 0.64 0.67 0.7 2.51 8.45 13.18 16.72 19.11 20.52 20.59 19.41 17.16 13.69 9.07 6.91 3.76 1.1 1.12 1.22 1.18 1.21 1.23 1.26 1.29 1.35 1.34 1.42 3.35 9.42 14.23 17.45 19.3 19.88 18.81 16.6 12.79 7.59 10.45 14.03 15.81 15.6 13.48 15.65 19.62 22.55 23.89 24.36 23.27 21.14 17.58 12.88 11.66 11.85 10.32 7.15 7.07 11.24 13.72 14.53 13.45 10.81 9.97 9.63 8.07 5.25 2.31 2.33 2.35 5.63 11.82 16.51 19.92 21.87 22.45 21.53 19.22 15.63 10.58 4.17
0.04 1.21 8.35 14.38 19.15 22.62 25.05 25.99 26.07 24.87 22.45 18.61 13.78 7.65 0.48 0.53 0.52 0.52 0.59 0.58 0.65 0.64 0.67 0.7 3.59 9.65 14.34 17.91 20.39 21.6 21.68 20.56 18.28 14.82 10.26 4.41 1.08 1.11 1.13 1.26 1.2 1.22 1.25 1.34 1.38 1.33 1.42 1.38 1.41 6.73 11.43 14.69 16.57 16.99 16.06 13.81 11.52 13.85 14.87 14.34 12.58 10.17 9.86 15.15 19.25 22 23.57 23.9 22.87 20.66 17.14 14.97 16.75 16.84 15.34 12.15 7.33 4.12 6.58 9.05 12.16 14.19 14.94 14.59 13.12 10.47 6.37 2.34 2.37 7.5 13.6 18.35 21.77 23.72 24.26 23.42 21.23 17.56 12.45 6.1
0.02 0.09 6.82 12.89 17.54 21.29 23.52 24.59 24.62 23.28 20.87 17.23 12.3 6.35 0.53 0.47 0.59 0.55 0.56 0.59 0.62 0.65 0.75 0.73 3.74 9.55 14.4 17.88 20.34 21.68 21.62 20.51 18.31 14.94 10.24 4.46 1.08 1.11 1.14 1.17 1.25 1.29 1.27 1.28 1.31 1.34 1.39 3.12 6.25 8.32 8.99 10.49 12.25 12.85 11.88 12.92 16.86 19.2 20.3 19.91 18.06 14.7 9.99 13.33 17.53 20.33 21.85 22.17 21.22 18.96 15.45 18.39 20.21 20.26 18.84 15.62 10.83 4.29 8.64 13.03 16.2 18.16 18.94 18.52 16.97 14.16 10.34 5.19 2.46 7.96 14.08 18.86 22.27 24.18 24.71 23.87 21.63 17.92 13.03 6.52
0.03 0.96 4.17 10.22 15.01 18.5 20.88 21.98 21.94 20.74 18.28 14.5 9.65 3.56 0.46 0.5 0.53 0.53 0.56 0.61 0.62 0.65 0.68 0.74 2.49 8.46 13.17 16.8 19.17 20.43 20.52 19.47 17.17 13.7 9.01 3.3 1.09 1.12 1.17 1.18 1.21 1.28 1.29 1.33 1.32 1.42 4.3 8.47 11.55 13.54 14.26 13.83 12.29 9.45 11.53 16.91 20.73 23.21 24.24 23.84 21.93 18.73 13.87 10.59 14.52 17.44 18.81 19.25 18.28 15.95 16.57 20.13 21.94 22.06 20.47 17.36 12.66 6.09 11.27 15.67 18.86 20.76 21.52 21.11 19.59 16.82 13 7.82 2.4 6.98 13.28 17.93 21.26 23.29 23.78 22.93 20.7 17.17 12.04 5.58
2.84 7.22 10.23 11.87 12.03 14.68 16.99 18.1 18.17 16.82 14.34 10.72 5.65 0.43 0.44 0.52 0.51 0.56 0.57 0.61 0.64 0.66 0.72 0.72 0.75 6.17 10.77 14.46 16.81 18.12 18.14 17.1 14.7 11.34 6.71 1.07 1.1 1.14 1.22 1.19 1.27 1.24 1.27 1.3 1.44 2.96 8.42 12.64 15.72 17.63 18.31 17.87 16.45 13.67 14.2 19.38 23.38 25.84 26.71 26.3 24.48 21.2 16.45 10.23 10.37 13.16 14.67 14.99 14.02 11.78 16.67 20.14 21.98 22.24 20.65 17.58 12.54 7.16 12.71 17.13 20.25 22.22 23.03 22.71 21.11 18.37 14.44 9.41 3.02 4.69 10.87 15.61 19.01 20.97 21.45 20.66 18.41 14.71 9.65 3.29
7.6 11.98 15.08 16.69 16.92 15.64 13 12.97 13.12 11.79 9.18 5.52 0.64 0.42 0.45 0.48 0.59 0.57 0.67 0.6 0.68 0.66 0.69 0.72 0.75 2.44 7.2 10.81 13.26 14.58 14.72 13.47 11.26 7.79 3.27 1.09 3.13 5.62 6.55 6.11 4.07 1.28 1.28 1.31 1.39 5.82 11.35 15.65 18.66 20.61 21.24 20.93 19.32 16.58 15.23 20.53 24.42 26.77 27.81 27.41 25.63 22.33 17.5 11.32 5.01 7.75 9.22 9.57 8.56 9.92 15.01 18.56 20.33 20.62 19.14 15.85 10.91 7.49 13.15 17.33 20.56 22.52 23.33 23.01 21.4 18.64 14.75 9.6 3.38 2.45 7.13 11.87 15.25 17.18 17.76 16.9 14.61 10.99 5.95 2.65
11.11 15.59 18.57 20.12 20.47 19.17 16.46 12.5 7.02 5.46 2.92 0.37 0.39 0.48 0.51 0.48 0.51 0.57 0.57 0.6 0.67 0.7 0.77 0.82 0.76 0.81 2.63 6.23 8.63 9.88 9.9 8.86 6.47 3.2 1.06 5.45 9.37 11.94 12.82 12.4 10.41 6.82 1.81 1.32 1.34 7.72 13.1 17.37 20.43 22.41 23.13 22.71 21.19 18.47 14.84 20.2 24.02 26.57 27.58 26.99 25.24 21.9 17.31 11.12 3.45 1.91 2.58 2.93 1.99 6.55 11.75 15.27 17.04 17.23 15.84 12.67 7.76 6.7 12.19 16.6 19.65 21.71 22.45 22.1 20.51 17.83 13.76 8.82 2.53 2.49 2.51 6.7 10.12 12.08 12.56 11.83 9.46 5.8 2.64 2.66
13.17 17.53 20.57 22.17 22.29 21.17 18.55 14.59 9.06 2.34 0.33 0.36 0.41 0.48 0.47 0.5 0.6 0.55 0.6 0.63 0.64 0.67 0.7 0.8 0.76 0.79 0.94 0.85 2.69 4.02 4.09 3.08 1 1.03 4.78 10.25 14.22 16.74 17.57 17.31 15.23 11.57 6.59 1.32 1.81 8.25 13.8 17.91 21.14 23.09 23.82 23.5 21.91 19.07 15.17 18.48 22.32 24.73 25.66 25.35 23.51 20.16 15.49 9.28 1.92 1.95 1.96 1.97 2.02 2.06 6.82 10.24 12.14 12.38 10.85 7.68 2.86 4.57 10.3 14.4 17.59 19.65 20.42 20.12 18.53 15.81 11.79 6.74 2.53 2.53 2.59 2.52 3.58 5.45 6.1 5.26 3.08 2.64 2.71 2.67
13.79 18.22 21.22 22.88 22.98 21.83 19.21 15.14 9.75 2.96 0.33 0.36 0.47 0.43 0.46 0.49 0.52 0.57 0.58 0.68 0.64 0.67 0.71 0.74 0.77 0.82 0.83 0.9 0.99 0.92 0.95 1.06 1.06 1.07 7.94 13.49 17.59 19.96 20.95 20.39 18.33 14.94 9.85 3.23 1.48 7.82 13.24 17.45 20.63 22.59 23.25 22.89 21.24 18.62 14.64 15.21 19.1 21.54 22.59 22.15 20.25 17.06 12.14 6.15 1.92 1.95 2.01 1.98 2.05 2.03 2.13 3.77 5.59 5.71 4.29 2.18 2.2 2.23 6.95 11.22 14.4 16.42 17.22 16.79 15.15 12.48 8.57 3.54 2.47 2.49 2.59 2.53 2.55 2.63 2.65 2.61 2.65 2.65 2.72 2.69
13.1 17.38 20.51 22.07 22.26 21.11 18.41 14.32 8.94 2.18 0.33 0.36 0.48 0.43 0.46 0.58 0.52 0.56 0.58 0.62 0.65 0.69 0.73 0.74 0.8 0.88 0.83 0.97 0.94 0.92 0.96 0.99 1.02 2.74 9.85 15.27 19.23 21.74 22.8 22.17 20.15 16.64 11.48 5.13 1.38 6.17 11.52 15.75 18.93 20.75 21.47 21.16 19.59 16.87 13.06 10.54 14.44 16.94 17.92 17.51 15.6 12.41 7.64 1.89 1.92 1.94 2.05 2.64 2.39 2.16 2.07 2.09 2.12 2.19 2.17 2.19 2.22 2.24 2.53 6.88 10.06 11.93 12.83 12.4 10.88 8.11 4.15 2.55 2.53 2.52 2.53 2.55 2.57 2.69 2.64 2.63 2.65 2.67 2.68 2.72
10.98 15.38 18.18 19.94 20.16 18.94 16.29 12.19 6.78 0.39 0.34 0.38 0.51 0.48 0.46 0.55 0.53 0.56 0.59 0.65 0.94 4.1 6.2 7.14 7.08 5.65 3.3 0.9 0.9 0.93 0.96 0.99 1.04 2.9 10.02 15.57 19.5 21.98 23.05 22.44 20.39 16.98 11.86 5.41 1.38 3.27 8.69 12.91 15.99 18 18.75 18.36 16.77 14.01 10.1 5.13 8.51 10.9 11.82 11.35 9.49 6.24 1.9 1.9 2.78 6.56 9.02 10.03 9.63 8.05 5.08 2.11 2.13 2.16 2.23 2.2 2.25 2.25 2.27 2.31 4.39 6.39 7.25 6.9 5.26 2.54 2.6 2.48 2.5 2.59 2.54 2.58 2.58 2.63 2.65 2.64 2.66 2.68 2.7 2.72
7.26 11.73 14.78 16.39 16.54 15.29 12.78 8.65 3.27 0.4 0.39 0.37 0.4 0.43 0.46 0.5 0.53 0.62 0.59 2.53 6.81 10.09 12.19 13.13 12.95 11.69 9.22 5.72 0.9 0.95 1.05 1.01 1.03 1.71 8.84 14.24 18.19 20.86 21.77 21.21 19.18 15.65 10.57 4.07 1.43 1.42 4.72 8.95 11.99 13.97 14.72 14.32 12.67 9.94 6.14 1.74 1.73 3.38 4.27 3.85 2.06 1.86 1.89 3.76 8.88 12.63 14.93 15.93 15.68 14.1 11.1 6.71 2.14 2.17 3.28 4.54 4.32 2.3 2.29 2.39 2.35 2.36 2.75 3.63 3.24 2.45 2.47 2.52 2.54 2.53 2.62 2.59 2.59 2.61 2.63 3.69 3.99 3.22 2.71 2.73
2.32 6.81 9.72 11.44 11.66 10.35 7.75 3.67 0.27 0.31 0.39 0.37 0.4 0.44 0.54 0.57 0.53 0.58 1.74 7.25 11.63 14.83 17.02 18 17.75 16.52 14.01 10.41 5.84 0.94 0.98 1 1.04 1.06 5.98 11.45 15.59 18.01 18.95 18.43 16.45 12.91 7.87 1.4 1.39 1.42 1.49 3.77 6.86 8.8 9.58 9.21 7.59 4.91 1.68 1.74 1.74 1.77 1.83 1.82 1.91 1.96 2.07 8.48 13.55 17.29 19.67 20.75 20.34 18.79 15.68 11.38 5.65 7.23 10.24 11.75 11.42 9.28 5.51 2.33 3.34 6.89 9.12 10.12 9.53 7.72 4.54 2.51 2.52 2.54 2.59 2.61 2.61 6.06 8.77 10.49 10.76 9.9 7.87 4.75
0.06 0.36 3.38 4.91 5.15 3.93 1.42 0.24 0.31 0.35 0.45 0.38 0.41 0.48 0.47 0.51 0.56 0.66 5.38 10.88 15.33 18.55 20.66 21.57 21.38 20.03 17.73 14.27 9.42 3.59 1.01 1.02 1.07 1.1 1.8 7.1 11.2 13.77 14.72 14.21 12.18 8.6 3.59 1.37 1.4 1.43 1.46 1.61 1.56 2.46 3.17 2.81 1.65 1.69 1.69 1.72 1.84 1.8 1.8 1.83 1.85 1.88 5.32 11.72 16.93 20.59 23.05 23.99 23.75 22.01 19.02 14.61 8.99 12.55 15.73 16.97 16.65 14.53 10.77 5.19 8.28 11.96 14.26 15.06 14.61 12.78 9.6 5.05 2.59 2.56 2.58 2.6 7.61 11.57 14.27 15.83 16.33 15.41 13.47 10.33
0.1 0.05 0.08 0.2 0.19 0.27 0.28 0.34 0.31 0.31 0.37 0.38 0.41 0.44 0.47 0.5 0.56 1.29 7.92 13.49 17.77 21.11 23.16 24.16 23.87 22.67 20.24 16.69 11.94 6.04 1.05 1.12 1.08 1.1 1.13 1.45 5.55 8 8.89 8.42 6.37 2.93 1.35 1.38 1.41 1.46 1.47 1.5 1.65 1.59 1.58 1.64 1.64 1.76 1.71 1.73 1.75 1.78 1.81 1.84 1.9 1.89 7.33 13.77 18.81 22.51 24.84 25.98 25.69 24.03 21.04 16.7 11.25 16.12 19.16 20.64 20.2 18.18 14.35 8.83 11.98 15.62 17.87 18.82 18.23 16.39 13.23 8.71 2.78 2.57 2.59 6.93 12.08 15.97 18.69 20.29 20.52 19.83 17.84 14.61
0.02 0.12 0.14 0.12 0.15 0.18 0.24 0.25 0.28 0.31 0.34 0.38 0.42 0.49 0.47 0.62 0.54 2.58 9.31 14.9 19.27 22.42 24.52 25.59 25.45 24.07 21.64 18.07 13.33 7.44 0.99 1.02 1.05 1.08 1.11 1.14 1.21 1.2 1.67 1.29 1.3 1.48 1.4 1.39 1.42 1.54 1.48 1.5 1.63 1.56 1.63 1.72 1.65 1.71 1.76 1.73 1.76 1.79 1.82 1.84 1.87 1.96 7.93 14.45 19.52 23.27 25.55 26.69 26.25 24.66 21.62 17.24 13.11 18.08 21.08 22.43 21.97 20.01 16.25 10.65 14.3 17.9 20.17 21.14 20.66 18.78 15.63 11.03 5.06 2.58 3.81 10.06 15.29 19.16 21.9 23.46 23.8 22.99 20.94 17.78
0.02 0.05 0.08 0.22 0.15 0.19 0.21 0.25 0.34 0.36 0.38 0.38 0.49 0.44 1.29 3.73 4.94 4.79 9.53 15.11 19.52 22.72 24.76 25.74 25.64 24.32 21.86 18.34 13.61 7.74 0.99 1.07 1.08 1.09 1.12 1.17 1.18 1.28 1.3 1.27 1.36 1.33 1.39 1.39 1.43 1.45 1.55 1.51 1.54 1.68 1.6 1.73 1.66 1.7 1.78 1.81 1.77 1.86 1.85 1.86 1.94 1.91 7.25 13.62 18.71 22.44 24.83 25.86 25.56 23.89 20.94 16.54 13.37 18.13 21.26 22.52 22.26 20.11 16.33 10.81 15.15 18.89 21.12 22.08 21.55 19.77 16.58 12 5.98 2.62 5.81 12.07 17.13 21.06 23.83 25.49 25.81 24.97 22.97 19.93
0.07 0.07 0.11 0.21 0.15 0.19 0.22 0.25 0.34 0.31 0.4 0.48 0.45 3.48 7.33 9.78 10.96 10.84 9.52 14.27 18.69 21.83 23.97 24.91 24.78 23.43 20.98 17.45 12.71 6.9 1.02 1.03 1.17 1.09 1.14 1.27 1.18 1.28 1.25 1.34 1.31 1.34 1.37 1.4 1.46 1.49 1.49 1.52 1.55 1.6 1.73 1.64 1.66 1.69 1.72 1.75 1.89 1.81 1.83 1.86 1.93 1.92 5.12 11.54 16.66 20.33 22.71 23.82 23.48 21.86 18.86 14.61 11.64 16.47 19.64 20.95 20.52 18.44 14.72 9.8 14.88 18.43 20.7 21.62 21.13 19.32 16.2 11.57 5.51 2.65 6.63 12.87 18.09 22 24.72 26.24 26.67 25.89 23.82 20.68
0.02 0.06 0.09 0.12 0.15 0.24 0.22 0.3 0.3 0.32 0.35 0.38 3.21 8.24 12.08 14.47 15.67 15.52 14.14 12.21 16.57 19.83 21.91 22.93 22.72 21.47 18.93 15.46 10.66 4.87 1.02 1.03 1.06 1.13 1.13 1.16 1.19 1.22 1.31 1.39 1.33 1.34 1.37 1.41 1.46 1.47 1.5 1.53 1.71 1.62 1.61 1.64 1.67 1.7 1.85 1.78 1.79 1.83 1.84 1.87 1.9 1.93 1.96 8.05 13.19 16.97 19.34 20.35 19.98 18.41 15.41 11.02 8.31 13.13 16.2 17.65 17.27 15.18 11.35 8.11 13.02 16.66 18.85 19.82 19.38 17.59 14.24 9.77 3.79 2.61 6.31 12.49 17.62 21.57 24.42 25.9 26.36 25.38 23.4 20.28
0.05 0.05 0.14 0.13 0.15 0.27 0.23 0.28 0.28 0.32 0.39 0.38 6.56 11.76 15.46 17.87 19.07 19.07 17.56 14.86 13.46 16.72 18.77 19.76 19.59 18.25 15.85 12.26 7.43 1.73 1.13 3.4 4.3 3.65 1.87 1.16 1.2 1.29 1.26 1.32 1.4 1.38 1.38 1.41 1.44 1.47 1.5 1.53 1.61 1.59 1.62 1.67 1.68 1.78 1.79 1.77 1.82 1.82 1.89 1.93 1.97 1.93 1.96 3.34 8.41 12.09 14.62 15.56 15.3 13.67 10.65 6.42 3.23 8.1 11.19 12.5 12.22 10.11 6.32 4.99 9.97 13.49 15.75 16.57 16.13 14.41 11.14 6.63 2.69 2.69 4.67 11.01 16.07 20.12 22.74 24.33 24.74 23.84 21.94 18.7
0.02 0.11 0.12 0.26 3.77 5.49 5.92 4.58 1.83 0.33 0.35 2.2 8.64 13.79 17.61 20.04 21.31 21.21 19.77 17.1 13.13 12.35 14.56 15.49 15.28 14.03 11.53 7.94 3.3 4.65 8.27 10.44 11.37 10.81 8.8 5.54 1.2 1.23 1.32 1.36 1.32 1.36 1.4 1.42 1.48 1.57 1.51 1.54 1.61 1.6 1.64 1.7 1.69 1.82 1.74 1.77 1.8 1.88 1.88 1.91 1.92 1.94 1.99 2 2.34 6.09 8.43 9.41 9.11 7.5 4.57 2.23 2.3 2.27 4.35 5.73 5.41 3.19 2.41 2.4 5.41 9.07 11.29 12.24 11.7 9.83 6.56 2.62 2.62 2.71 2.65 8.26 13.33 17.28 20.11 21.62 22.04 21.2 19.17 16.01
0.02 0.05 1.51 6.59 9.98 11.96 12.16 10.86 8.11 3.62 0.41 3.1 9.53 14.68 18.48 20.88 22.06 21.98 20.58 17.95 13.88 8.65 9.17 10.07 9.86 8.58 6.18 2.57 5.54 10.45 14.15 16.23 16.9 16.46 14.54 11.23 6.69 1.31 1.27 1.3 1.33 1.36 1.46 1.44 1.5 1.48 1.51 1.54 1.57 1.61 1.66 1.66 1.72 1.72 1.75 1.79 1.85 1.89 1.89 1.96 2.04 1.97 1.98 2 2.03 2.06 2.1 2.11 2.22 2.2 2.19 2.31 2.35 2.27 2.29 2.32 2.4 2.43 2.42 2.41 2.44 4.61 7.39 9.3 10.13 9.81 8.58 6.26 2.91 2.68 2.8 4.4 9.53 13.5 16.19 17.7 18.12 17.23 15.25 12.06
0.02 0.06 6.33 11.39 14.8 16.67 16.9 15.68 12.79 8.42 2.58 2.71 9.04 14.03 17.91 20.46 21.61 21.51 20.12 17.46 13.52 8.09 2.53 3.37 3.28 2.03 0.89 3.47 9.66 14.71 18.19 20.51 21.35 20.84 18.93 15.63 10.94 4.93 1.35 1.37 1.34 1.39 1.49 1.44 1.46 1.5 1.58 1.55 1.58 1.67 1.65 1.67 1.7 1.74 1.78 1.88 1.84 1.87 1.87 1.91 1.95 1.96 1.98 2.04 2.04 2.06 2.1 2.12 2.19 2.17 2.2 2.27 2.3 2.27 2.32 2.37 2.39 2.4 2.45 2.45 6.59 10.47 13.44 15.31 16 15.92 14.65 12.31 8.92 4.52 2.67 2.69 4.35 8.28 11.01 12.57 12.89 12.09 10.2 6.93
0.08 3.02 9.54 14.51 17.91 19.84 20.07 18.92 16.07 11.7 5.78 1.02 7.34 12.46 16.17 18.62 19.85 19.73 18.43 15.67 11.72 6.41 0.81 0.8 0.82 0.86 0.89 6.45 12.77 17.68 21.2 23.58 24.35 23.86 21.91 18.67 13.92 7.97 1.28 1.31 1.34 1.37 1.4 1.43 1.5 1.52 1.52 1.56 1.59 1.62 1.65 1.67 1.71 1.73 1.8 1.81 1.84 1.9 1.88 1.92 1.93 1.96 1.99 2.12 2.04 2.07 2.17 2.13 2.15 3.05 4.74 5.03 3.79 2.3 2.34 2.33 2.36 2.38 2.42 6.56 11.46 15.49 18.27 20.22 21 20.87 19.59 17.27 13.86 9.49 4.14 2.73 2.72 2.74 4.8 6.3 6.71 5.93 3.85 2.86
0.13 4.72 11.22 16.25 19.63 21.37 21.84 20.55 17.68 13.31 7.38 0.39 4.24 9.37 13.15 15.68 16.75 16.75 15.35 12.61 8.64 3.44 0.83 0.82 0.83 0.89 0.89 8.1 14.36 19.32 22.87 25.09 25.89 25.42 23.5 20.23 15.54 9.6 2.25 1.36 1.34 1.38 1.51 1.44 1.47 1.5 1.53 1.56 1.61 1.63 1.65 1.7 1.71 1.74 1.78 1.8 1.83 1.86 1.92 1.91 1.94 1.97 2.02 2.02 2.08 2.1 2.11 2.56 7.3 10.6 12.35 12.54 11.34 8.4 4.13 2.34 2.37 2.45 4.44 10.54 15.56 19.39 22.28 24.15 24.95 24.77 23.52 21.14 17.86 13.41 8.06 2.75 2.74 2.75 2.83 2.88 2.81 2.83 2.92 2.87
0.02 4.75 11.2 16.2 19.72 21.63 21.73 20.52 17.8 13.37 7.47 0.39 0.43 5.1 8.86 11.22 12.46 12.44 10.95 8.25 4.34 0.82 0.8 0.86 0.87 0.94 0.93 8.32 14.53 19.46 23.12 25.3 26.19 25.62 23.81 20.4 15.91 9.81 2.31 1.32 1.37 1.42 1.48 1.44 1.5 1.5 1.53 1.61 1.62 1.63 1.72 1.72 1.87 1.82 1.77 1.88 1.9 1.86 1.93 2.02 1.95 1.97 2 2.15 2.06 2.09 2.13 8.53 13.33 16.59 18.37 18.59 17.25 14.51 10.16 4.26 2.48 2.41 7.34 13.31 18.39 22.31 25.17 27.04 27.91 27.65 26.46 24.1 20.73 16.39 10.94 4.47 2.78 2.8 2.78 2.81 2.82 5.73 7.68 8.57
0.08 3.22 9.78 14.79 18.25 20.04 20.46 18.99 16.31 11.97 6.1 0.39 0.43 0.46 3.14 5.61 6.8 6.84 5.4 2.61 0.7 0.76 0.77 0.91 0.83 0.88 0.91 7.09 13.46 18.32 21.94 24.11 25.04 24.59 22.58 19.3 14.66 8.71 1.29 1.32 1.35 1.4 1.49 1.48 1.48 1.56 1.6 1.58 1.6 1.66 1.66 1.69 1.77 1.75 1.78 1.85 1.85 1.88 1.9 1.92 2.01 1.98 2.01 2.04 2.15 2.11 6.71 13.09 17.96 21.07 22.87 23.17 21.79 18.98 14.65 8.82 2.43 2.48 9.26 15.23 20.13 24.07 26.98 28.88 29.78 29.47 28.13 25.86 22.54 18.24 12.68 7.31 7.59 6.61 4.53 4.07 8.62 11.82 13.76 14.59
0.02 0.27 6.75 11.84 15.15 17.09 17.38 16.1 13.32 8.98 3.03 0.5 0.44 0.46 0.5 0.53 0.57 0.6 0.64 0.68 0.7 0.73 0.77 0.8 0.87 0.87 0.93 4.65 11.04 15.84 19.45 21.61 22.49 21.97 20.18 16.8 12.03 6.17 1.29 1.36 1.38 1.39 1.42 1.52 1.48 1.6 1.57 1.57 1.68 1.67 1.67 1.7 1.73 1.79 1.78 1.81 1.86 1.87 1.9 1.93 1.96 1.99 2.07 2.09 2.07 2.1 9.6 16.06 20.8 24.11 25.91 26.07 24.81 22.03 17.75 11.72 4.3 2.93 10.09 16.04 20.97 24.88 27.86 29.64 30.49 30.24 29.05 26.7 23.36 18.99 13.58 13.13 13.53 12.61 10.36 8.94 13.46 16.77 18.69 19.64
0.02 0.1 2.19 7.2 10.6 12.45 12.72 11.43 8.72 4.3 2.41 4.67 5.17 3.8 0.73 0.53 0.57 0.6 0.64 0.67 0.7 0.74 0.77 0.84 0.84 0.87 0.9 1.01 7.08 12 15.58 17.82 18.66 18.11 16.24 12.95 8.31 2.23 1.3 1.38 1.42 1.41 1.42 1.52 1.49 1.52 1.6 1.58 1.61 1.64 1.7 1.71 1.73 1.76 1.79 1.82 1.85 1.88 1.91 1.93 1.96 1.99 2.02 2.07 2.13 3.3 11.08 17.36 22.29 25.59 27.31 27.56 26.19 23.43 19.05 13.16 5.85 2.77 9.84 15.82 20.84 24.66 27.54 29.47 30.34 30.07 28.8 26.46 23.1 18.78 16 17.77 18.03 17.09 14.98 12.66 17.13 20.37 22.45 23.28
0.02 0.07 0.15 1.1 4.37 6.4 6.64 5.37 2.59 3.67 7.73 10.14 10.61 9.32 6.16 1.33 0.59 0.64 0.68 0.69 0.7 0.76 0.83 0.81 0.84 0.99 0.91 0.94 1.85 6.73 10.29 12.54 13.36 12.76 10.95 7.64 2.96 1.28 1.3 1.36 1.39 1.4 1.43 1.47 1.59 1.55 1.6 1.62 1.63 1.66 1.67 1.77 1.79 1.76 1.8 1.82 1.88 1.89 1.93 1.95 1.97 2 2.02 2.05 2.13 3.26 11.05 17.38 22.23 25.57 27.31 27.43 26.26 23.21 19 13.09 5.77 2.42 8.56 14.47 19.4 23.43 26.28 28.23 28.98 28.74 27.51 25.14 21.82 17.43 19.45 21.05 21.49 20.49 18.32 15.04 19.58 22.85 24.93 25.82
0.02 0.05 0.09 0.14 0.16 0.25 0.25 0.26 1.36 7.23 11.37 13.72 14.19 12.83 9.79 4.97 0.57 0.63 0.67 0.67 0.77 0.75 0.83 0.86 0.84 0.93 0.91 0.94 0.98 1.01 3.7 5.94 6.76 6.15 4.21 1.21 1.24 1.3 1.38 1.34 1.39 1.43 1.49 1.47 1.53 1.58 1.56 1.59 1.62 1.65 1.68 1.75 1.74 1.78 1.8 1.83 1.9 1.89 1.91 1.94 1.97 2 2.07 2.12 2.11 2.15 9.42 15.7 20.57 23.92 25.62 25.72 24.5 21.77 17.36 11.51 4.11 2.43 6.15 12.19 17.13 21.12 23.94 25.83 26.65 26.38 25.17 22.92 19.52 18.38 21.45 23.17 23.42 22.44 20.29 16.69 20.86 24.05 26.1 26.83
0.1 0.06 0.11 0.13 0.16 0.19 0.23 0.26 3.14 9.12 13.25 15.45 15.91 14.73 11.51 6.79 0.59 0.61 0.69 0.67 0.71 0.74 0.78 0.88 0.85 3.01 5.28 5.79 4.77 2.11 1.08 1.08 1.11 1.14 1.19 1.21 1.24 1.27 1.39 1.34 1.37 1.5 1.43 1.47 1.5 1.53 1.56 1.59 1.67 1.65 1.75 1.74 1.74 1.77 1.82 1.91 1.86 1.89 2 1.95 2.05 2 2.04 2.08 2.12 4.85 9.09 12.55 17.46 20.75 22.39 22.77 21.32 18.64 14.15 8.4 2.42 2.47 2.92 8.82 13.75 17.75 20.56 22.45 23.3 23.04 21.87 19.51 16.13 18.98 22.01 23.72 24.04 23.08 20.94 17.46 20.78 24.09 26 26.95
0.04 0.15 0.09 0.12 0.16 0.19 0.23 0.3 3.24 9.07 13.07 15.56 16.06 14.75 11.67 6.77 2.81 1.18 0.64 0.68 0.71 0.75 0.83 0.82 5.04 9.01 11.26 11.81 10.72 8.16 3.67 1.08 1.11 1.15 1.18 1.23 1.35 1.28 1.31 1.34 1.5 1.47 1.44 1.47 1.5 1.53 1.56 1.72 1.64 1.65 1.68 1.72 1.8 1.78 1.81 1.85 1.86 1.91 1.92 1.95 1.98 2.09 2.04 2.16 3.72 9.41 13.62 16.78 18.53 19.23 18.55 17.96 16.74 13.94 9.6 3.72 2.44 2.48 2.47 4.44 9.38 13.39 16.24 18.11 18.92 18.63 17.45 15.05 14.15 18.41 21.46 23.1 23.48 22.54 20.38 16.78 19.53 22.85 24.84 25.76
0.02 0.12 0.14 0.12 0.16 0.19 0.23 0.3 1.44 7.24 11.46 13.78 14.25 12.91 9.8 10.28 10.09 8.41 5.43 1.41 0.71 0.76 0.81 3.87 9.43 13.35 15.51 16.23 15.01 12.42 7.98 2.06 1.12 1.16 1.25 1.21 1.25 1.28 1.32 1.42 1.38 1.41 1.5 1.49 1.52 1.55 1.66 1.62 1.63 1.68 1.69 1.72 1.75 1.78 1.81 1.88 1.87 1.93 1.98 2.05 1.99 2.01 2.04 2.12 6.99 12.69 16.82 19.94 21.87 22.38 21.78 19.93 16.79 12.47 6.87 2.42 2.46 2.44 2.51 2.55 4.05 7.95 10.78 12.7 13.46 13.29 12.02 9.69 12.22 16.52 19.53 21.17 21.57 20.62 18.42 14.77 17 20.28 22.34 23.18
0.02 0.05 0.09 0.12 0.17 0.19 0.23 0.26 0.47 3.77 7.84 10.05 10.57 13.28 15.47 16.3 16.01 14.42 11.55 7.47 2.17 0.75 0.83 6.44 12.08 16.03 18.29 18.8 17.84 15.08 10.71 4.92 1.12 1.15 1.23 1.22 1.25 1.28 1.36 1.37 1.38 1.44 1.44 1.47 1.5 1.61 1.57 1.6 1.63 1.66 1.69 1.74 1.75 1.86 1.81 1.84 1.87 1.9 1.94 1.97 2.04 2.04 2.04 2.22 9.04 14.54 18.94 21.98 23.87 24.47 23.84 21.94 18.77 14.44 8.92 2.39 2.48 2.48 2.5 2.51 2.52 2.54 4.35 6.17 6.96 6.76 5.57 3.42 9.03 13.29 16.21 18 18.36 17.47 15.04 11.62 13.37 16.57 18.63 19.43
0.02 0.05 0.1 0.12 0.16 0.3 0.23 0.26 0.3 0.37 4.23 10.15 14.59 18.01 20.16 21 20.59 19.09 16.23 12.08 6.82 0.75 0.81 7.62 13.09 17.04 19.2 19.81 18.79 16.14 11.79 5.72 1.12 1.2 1.22 1.22 1.91 1.35 1.32 1.35 1.39 1.44 1.47 1.48 1.52 1.57 1.57 1.6 1.63 1.66 1.71 1.74 1.75 1.78 1.81 1.85 1.87 1.9 1.96 2.02 2.29 5.61 7.34 7.35 9.87 15.4 19.7 22.75 24.57 25.23 24.59 22.82 19.5 15.28 9.75 8.34 6.95 3.84 2.47 2.56 2.52 2.55 2.64 2.6 2.64 2.64 2.66 2.73 4.42 8.7 11.79 13.43 13.89 12.81 10.59 7.04 8.43 11.74 13.67 14.38
0.02 0.05 0.14 0.17 0.16 0.22 0.32 0.29 0.38 0.71 7.7 13.47 18.11 21.47 23.58 24.39 24.25 22.52 19.76 15.59 10.32 3.94 0.8 6.99 12.61 16.51 18.67 19.27 18.31 15.53 11.21 5.19 1.12 1.16 4.72 7.85 9.22 8.5 6.14 1.69 1.38 1.41 1.45 1.56 1.51 1.59 1.67 3.46 5 5.15 3.68 1.76 1.84 1.79 1.82 1.85 1.9 1.91 1.99 4.89 9.61 12.93 14.58 14.79 13.31 14.96 19.25 22.37 24.17 24.76 24.12 22.29 19.16 14.81 13.76 13.96 12.61 9.68 4.77 2.5 2.55 2.55 2.58 2.64 2.64 2.64 2.67 2.69 2.76 2.97 5.79 7.52 7.95 7.07 4.83 2.91 2.88 5.46 7.53 8.29
0.03 0.08 0.11 0.12 0.16 0.2 0.23 0.28 0.3 2.88 9.82 15.72 20.4 23.59 25.74 26.69 26.3 24.8 21.96 17.86 12.5 5.99 0.84 4.75 10.34 14.17 16.57 17.08 15.89 13.32 8.84 2.99 1.12 4.78 9.95 13.14 14.38 13.85 11.38 7.14 1.38 1.42 1.45 1.53 1.53 2.84 7.45 10.76 12.2 12.26 10.93 7.84 3.39 1.82 1.82 1.85 1.88 1.91 4.3 10.62 15.51 18.72 20.55 20.59 19.14 16.22 17.6 20.65 22.56 23 22.36 20.63 17.56 15.73 17.73 18.04 16.68 13.51 8.58 2.53 2.53 4.22 5.24 5.18 3.7 2.65 2.67 2.69 2.71 2.77 2.81 2.78 2.85 2.82 2.84 2.9 2.89 2.91 2.93 2.95
0.02 0.05 0.09 0.13 0.16 0.2 0.25 0.31 0.39 3.86 10.83 16.74 21.34 24.65 26.73 27.67 27.38 25.81 22.92 18.87 13.65 6.99 0.79 0.87 6.37 10.25 12.48 13.1 12.03 9.42 5.07 1.14 1.2 8.09 13.3 16.53 17.9 17.25 14.77 10.41 4.16 1.42 1.49 1.5 2.43 8.56 13.15 16.31 17.96 18.02 16.51 13.57 9.11 2.89 1.84 1.92 1.9 1.91 8.58 14.94 19.7 22.88 24.69 24.93 23.44 20.43 15.87 17.7 19.64 20.24 19.54 17.61 14.48 18.08 20.05 20.31 18.94 15.79 11.15 4.54 7.25 9.7 10.97 10.81 9.14 6.41 2.67 2.77 2.72 2.74 2.76 2.78 2.81 2.83 2.92 2.89 2.89 2.92 2.94 2.95
0.02 0.05 0.2 0.13 0.16 0.19 0.23 0.26 0.34 3.64 10.71 16.52 21.08 24.4 26.57 27.46 27.06 25.53 22.74 18.58 13.28 6.83 0.79 0.82 0.85 4.84 7.01 7.51 6.55 3.82 1.06 1.11 2.79 9.69 14.72 17.94 19.39 18.75 16.29 11.84 5.66 1.42 1.45 1.48 6.53 12.79 17.42 20.35 22.07 22.15 20.7 17.66 13.22 7.12 1.82 1.85 1.95 3.28 11.22 17.75 22.43 25.62 27.34 27.59 26 23.21 18.54 13.59 15.34 16.01 15.32 13.44 14.97 18.71 20.79 20.94 19.6 16.51 11.71 7.74 11.56 13.9 15.11 15.01 13.37 10.67 6.47 2.7 2.72 2.8 2.76 2.8 2.85 2.88 2.85 2.89 2.9 2.92 2.93 2.95
0.02 0.07 0.17 0.12 0.23 0.2 0.28 0.26 0.34 2.1 9.22 14.96 19.62 22.89 25.08 25.94 25.56 23.99 21.17 17.11 11.87 5.23 0.84 0.82 0.92 0.93 1 0.96 1.03 1.02 1.06 1.11 2.29 9.22 14.36 17.58 18.97 18.3 15.85 11.56 5.24 1.42 1.49 1.48 9.15 15.29 19.96 23.24 24.68 24.78 23.36 20.34 15.76 9.75 2.32 1.85 1.88 4.45 12.3 18.73 23.47 26.89 28.53 28.64 27.3 24.28 19.76 13.63 9.89 10.58 10.01 8.39 13.91 17.71 19.59 19.98 18.44 15.41 10.52 10.56 14.36 16.91 18.14 17.83 16.32 13.58 9.31 3.94 2.72 2.74 2.77 2.79 2.84 2.86 2.85 2.87 2.91 2.95 2.98 2.95
0.02 0.05 0.09 0.12 0.16 0.19 0.23 0.27 0.32 0.33 6.42 12.3 16.95 20.29 22.26 23.15 22.88 21.41 18.5 14.45 9.11 2.68 0.8 0.82 0.85 0.89 0.92 1.05 1.05 1.02 1.07 1.11 1.12 6.94 12.08 15.35 16.56 15.95 13.61 9.2 2.91 1.42 1.5 2.68 10.28 16.45 21.07 24.25 25.96 25.83 24.43 21.37 16.9 10.85 3.29 1.85 1.91 3.99 11.83 18.31 23.08 26.29 28.15 28.21 26.78 23.89 19.29 13.17 5.57 3.92 3.34 5.75 11.21 14.77 16.74 17.1 15.75 12.63 7.84 12.14 16.04 18.44 19.6 19.51 17.97 15.16 10.87 5.32 2.76 2.78 2.79 2.79 2.81 2.83 2.86 2.87 2.89 2.95 3.03 2.95
0.02 0.08 0.09 0.16 0.16 0.22 0.23 0.26 0.32 0.4 2.52 8.42 12.93 16.35 18.43 19.42 18.93 17.3 14.53 10.34 5.17 0.75 0.83 0.82 0.85 0.89 0.98 1.01 0.99 1.02 1.07 1.09 1.16 2.83 7.93 11.17 12.36 11.88 9.38 4.95 1.41 1.42 1.45 2.19 9.89 16.05 20.65 23.83 25.44 25.43 24 21.05 16.4 10.54 2.92 1.9 1.88 1.95 9.99 16.33 21.19 24.42 26.1 26.21 24.88 21.89 17.24 11.2 3.58 2.34 2.29 2.31 6.8 10.34 12.35 12.56 11.32 8.11 7.15 12.33 16.2 18.65 19.88 19.69 18.26 15.36 11.16 5.73 2.74 2.81 2.78 2.91 2.84 2.89 2.86 2.87 2.91 2.95 3.01 2.96
0.14 0.1 0.09 0.18 0.16 0.19 0.23 0.29 0.3 0.35 0.38 3.21 7.74 11.2 13.25 14.12 13.81 12.08 9.41 5.28 0.72 0.8 0.79 0.88 0.86 0.89 0.94 0.98 1.02 1.03 1.06 1.09 1.15 1.17 1.81 5.08 6.45 5.84 3.34 1.36 1.41 1.42 1.45 1.48 8 14.1 18.66 21.87 23.33 23.47 22.03 19.01 14.55 8.54 1.92 1.94 1.93 1.94 6.31 12.78 17.55 20.85 22.64 22.63 21.3 18.38 13.75 7.73 2.3 2.25 2.28 2.35 2.33 4.21 6.12 6.53 5.01 2.46 6.1 11.3 15.12 17.59 18.71 18.63 16.99 14.21 10.09 4.5 2.77 2.75 2.77 2.79 2.81 2.83 2.88 2.87 2.92 2.91 2.93 2.95
