ncols 100
nrows 100
xllcorner 612500
yllcorner 6642000
cellsize 0.5
NODATA_value -9999
3.57 9.66 14.39 17.89 20.29 21.27 21.14 19.59 16.86 12.93 7.54 0.99 0 0 0 0 0 0 0 0.1 0 0.04 5.26 10.91 15.09 17.65 18.72 18.25 16.25 12.52 7.33 2.31 5.84 7.97 8.74 8.1 6.11 2.72 0 0 0 3.97 7.11 9.08 9.83 9.41 7.86 5.17 1.26 0 0 0.04 3.38 10.48 15.55 18.98 20.43 20.32 18.4 14.52 8.98 1.76 0.04 0 0 0.03 0 0 4 8.52 11.26 12.19 11.19 8.45 4.1 0 0 0.04 0 0.03 0.07 0 0 0 0 0.05 0.04 0 0 0.05 0 0 0 0 0 0 0 0.03 0 0.02
3.56 9.58 14.38 17.99 20.21 21.32 21.09 19.58 16.88 12.78 7.57 1.06 0 0.01 0.06 0.02 0 0.01 0.05 0.07 0.04 0.56 7.75 13.35 17.57 20.21 21.18 20.74 18.61 15.12 9.88 6.97 10.57 12.75 13.48 12.76 10.88 7.56 2.67 0 4.89 9.18 12.27 14.4 15.11 14.56 13.14 10.37 6.41 1.27 0.01 0 2.74 9.55 14.71 18.08 19.67 19.53 17.53 13.72 8.22 0.99 0 0 0.06 0.01 0 2.8 9.01 13.4 16.14 17 16.13 13.41 8.97 2.66 0.08 0 0 1.64 2.63 2.16 0.43 0.1 0 0 0.05 0 3.06 4.94 5.45 4.54 2.17 0 0.06 0 0 0.02 0 0
2.34 8.41 13.11 16.72 19.16 20.02 19.83 18.4 15.52 11.58 6.26 0 0.06 1.39 4.31 5.79 6.03 5.1 2.61 0 0 1.41 8.61 14.25 18.45 21.02 22.16 21.6 19.49 15.89 10.81 10.39 13.98 16.05 16.75 16.22 14.13 10.81 6.14 3.4 8.88 13.22 16.46 18.23 19.08 18.71 17.02 14.37 10.53 5.44 0 0.01 0.1 6.93 12.15 15.59 17.07 16.82 14.96 11.21 7.44 7.41 6.03 2.98 0 0.04 0.14 5.97 12.23 16.64 19.33 20.18 19.27 16.56 12 5.95 0.03 2.4 6.03 8.33 9.2 8.82 7.11 4.02 0 0.06 1.59 6.26 9.54 11.55 12.05 11.14 8.81 5.12 0 0.09 0.56 0.78 0.01 0.07
0.01 5.82 10.69 14.18 16.48 17.53 17.37 15.78 13.04 8.97 3.75 0.04 2.77 6.85 9.75 11.3 11.48 10.48 8.26 4.51 0 0.89 7.9 13.62 17.84 20.49 21.49 21.02 18.98 15.31 10.12 12.42 15.91 18.07 18.84 18.2 16.19 12.79 8.14 6.25 11.81 15.98 19.2 21.14 21.88 21.53 19.98 17.26 13.36 8.25 2.05 0 0 2.65 7.78 11.11 12.71 12.57 10.51 11.9 13.3 13.39 11.94 9.03 4.54 0.06 0.04 7.22 13.45 17.94 20.72 21.5 20.72 17.99 13.48 7.24 2.78 7.71 11.35 13.56 14.52 14.2 12.48 9.42 4.91 0.59 6.74 11.48 14.86 16.63 17.19 16.35 13.92 10.24 5.03 5.26 6.99 7.32 6.32 3.88
0 1.95 6.79 10.33 12.71 13.69 13.44 12.06 9.31 5.33 0 1.5 7.07 11.17 14.02 15.6 15.81 14.8 12.49 8.76 4.45 7.54 9.13 11.45 15.62 18.25 19.19 18.85 16.72 13.12 8.14 12.98 16.49 18.58 19.37 18.78 16.83 13.44 8.7 7.86 13.44 17.76 20.9 22.78 23.57 23.22 21.6 18.89 15 9.85 3.56 0.01 0.01 0 1.61 4.94 6.44 9.02 13.41 16.37 17.87 17.85 16.4 13.36 9.01 3.07 0.05 6.85 13.09 17.63 20.2 21.12 20.15 17.53 13.14 6.8 6.79 11.75 15.31 17.69 18.54 18.26 16.43 13.36 8.93 4.43 10.44 15.16 18.54 20.44 20.85 19.98 17.69 13.93 8.82 10.47 11.99 12.49 11.5 9.04
0 0.02 1.7 5.26 7.64 8.61 8.46 6.93 4.12 1.6 1.27 4.48 9.93 14.14 17.05 18.58 18.76 17.71 15.36 11.7 9.91 12.87 14.4 14.61 13.58 14.44 15.61 15 12.96 9.34 7.31 12.19 15.69 17.87 18.59 17.95 15.98 12.71 7.88 8.46 13.96 18.29 21.43 23.38 24.07 23.68 22.14 19.48 15.58 10.47 4.21 0.09 0 0 0.01 0.09 6.04 11.96 16.4 19.44 20.77 20.89 19.33 16.49 11.98 6.08 0 4.58 10.87 15.21 17.97 18.92 17.99 15.28 10.85 4.54 9.37 14.39 17.95 20.33 21.16 20.87 19.02 16.03 11.5 6.65 12.8 17.5 20.8 22.75 23.23 22.34 20.02 16.28 11.26 14.11 15.94 16.25 15.1 12.78
0.04 0.03 0.06 0 1.31 2.17 2.18 5.73 7.79 8.73 8.23 6.6 11.52 15.77 18.57 20.18 20.33 19.32 17.04 13.28 13.84 16.78 18.41 18.61 17.64 15.37 11.63 9.69 7.66 4.09 5.18 10.14 13.58 15.76 16.61 15.8 13.99 10.54 5.81 7.76 13.23 17.54 20.66 22.74 23.42 23.03 21.51 18.69 14.69 9.78 3.53 0.12 0 0 0 0.21 7.63 13.53 18.01 20.75 22.3 22.31 20.87 17.94 13.54 7.62 0.16 0.66 6.92 11.37 14.09 14.88 13.9 11.4 6.89 4.39 10.7 15.68 19.3 21.62 22.52 22.06 20.37 17.33 12.85 7.65 13.71 18.5 21.81 23.64 24.17 23.24 21.02 17.24 13.43 16.49 18.27 18.68 17.61 15.15
0 0 0 0.06 0.06 3.38 8.1 11.36 13.59 14.36 14.09 12.27 11.92 16 18.91 20.41 20.69 19.63 17.39 13.58 16.6 19.5 21.13 21.35 20.3 18.02 14.2 9.15 2.87 0.05 1.72 6.53 10.14 12.23 12.96 12.33 10.37 7.05 2.27 5.93 11.48 15.76 18.82 20.72 21.6 21.21 19.6 16.87 12.92 8.84 8.38 6.8 4.07 0 0 0.27 7.73 13.56 17.97 21 22.44 22.42 20.95 17.95 13.54 7.53 0.22 0.06 1.12 5.6 8.32 9.16 8.23 5.56 1.08 4.29 10.62 15.59 19.21 21.59 22.49 22 20.38 17.32 12.88 7.13 13.36 17.94 21.31 23.12 23.67 22.75 20.54 16.7 14.36 17.55 19.07 19.64 18.6 16.06
0 0 0 0.01 2.01 7.99 12.53 15.92 18.06 18.9 18.55 16.74 13.83 15.02 17.86 19.45 19.66 18.63 16.29 13.64 17.91 20.82 22.37 22.71 21.7 19.23 15.59 10.58 4.24 0 0.02 1.62 5.24 7.31 8.05 7.38 5.41 2.05 0 2.97 8.41 12.62 15.86 17.7 18.66 18.19 16.6 13.9 13.5 14.37 13.97 12.37 9.5 5.34 0.1 0.01 6.15 12.1 16.58 19.53 21.02 20.98 19.54 16.59 12.12 6.19 0.02 0.06 0.03 0.06 0.72 1.55 0.65 0 0.04 3 9.33 14.27 17.79 20.15 21.06 20.73 18.97 15.91 11.46 5.81 11.39 16.13 19.36 21.44 21.78 21.01 18.68 14.74 13.95 17.17 18.82 19.16 18.19 15.74
0 0 0 0 5.26 11.31 15.76 19.14 21.26 22.1 21.74 20.05 17.02 12.97 15.59 17.17 17.43 16.44 14.06 13.52 17.93 20.79 22.37 22.7 21.58 19.33 15.67 10.51 4.26 0.04 0 0 0 1 1.9 1.21 0.04 0.01 0 0 4.26 8.55 11.57 13.61 14.39 13.96 12.49 15.69 17.88 18.75 18.3 16.63 13.78 9.71 4.32 0.01 3.23 9.17 13.48 16.5 18.12 18.03 16.56 13.63 9.23 3.35 0 0 0.05 0 0 0 0 0.05 0.01 0.28 6.64 11.6 15.14 17.49 18.39 18.04 16.24 13.13 8.75 4.16 8.15 12.81 16.07 18.04 18.54 17.68 15.35 11.51 12.23 15.38 17.15 17.45 16.33 14.06
0.03 0 0.04 0.06 7.18 13.12 17.8 21.26 23.25 24.08 23.63 22.06 19.06 14.8 11.98 13.55 13.81 12.76 10.48 12.3 16.49 19.44 21.2 21.36 20.37 17.92 14.25 9.27 2.94 0 0.1 0.1 0 0.08 0 0 0.05 0.03 0.01 0 0.01 3.18 6.3 8.2 9.07 10.94 15.47 18.68 20.93 21.81 21.38 19.67 16.88 12.71 7.39 0.72 0.03 4.79 9.17 12.11 13.64 13.61 12.18 9.16 4.83 0.01 0.09 0.02 0 0.02 0.03 0.02 0 0.01 0.04 0.04 2.62 7.52 11.12 13.42 14.32 14.01 12.21 9.13 8.13 9.64 9.42 8.17 11.45 13.38 13.91 13 10.65 6.98 9.08 12.21 14.01 14.4 13.3 10.96
0.06 0 0 0.73 7.9 13.82 18.5 21.86 24.07 24.87 24.45 22.73 19.76 15.54 10.1 8.69 8.9 7.9 5.54 9.65 14.01 16.87 18.56 18.84 17.65 15.37 11.61 6.54 0.22 0 0 0 0 0.01 0.75 3.16 3.76 2.77 0.05 0 0 0 0 1.76 6.84 12.65 17.27 20.59 22.75 23.42 23.13 21.5 18.65 14.4 9.16 2.59 3.22 6.74 8.43 8.27 7.88 7.84 6.32 3.37 0 0 0.04 0.04 0.05 0.02 0.02 0 0 0 0.01 0 0 2.09 5.76 7.99 8.96 8.53 6.79 8.93 11.92 13.37 13.23 11.52 8.09 7.31 7.77 6.85 4.43 1.33 7.81 12.61 15.78 17.32 17.32 15.75
0.05 0 0 0.12 7.35 13.33 17.93 21.35 23.44 24.32 23.83 22.1 19.2 15.08 9.52 2.7 2.75 1.77 0.19 5.73 10.02 12.81 14.52 14.72 13.76 11.41 7.7 2.62 0.03 0 0 0.06 0 4.12 8.15 10.47 11.27 10.18 7.24 2.71 0.09 0 0 0.35 7.5 13.12 17.75 21.19 23.16 24.09 23.71 22.06 19.18 15.11 9.69 3.19 8.4 11.98 13.52 13.42 11.5 7.82 2.44 0 0.01 0 0.02 0 0 0.09 0.04 1.22 1.59 0.54 0 0 0.08 0.04 0.03 1.23 2.25 1.82 6.4 11.09 14.18 15.63 15.57 13.77 10.26 5.32 0.27 0.03 0.06 5.48 11.95 16.71 19.88 21.43 21.48 19.99
0 0.05 0 0 5.46 11.36 16.12 19.44 21.57 22.44 22.03 20.31 17.35 13.13 7.68 0.93 0.11 0 0.1 0.45 4.65 7.57 9.22 9.5 8.47 6.18 2.36 0 0.1 0.02 0.01 0 3.83 9.72 13.91 16.26 17 15.87 12.95 8.4 2.07 0 0.07 0.04 6.68 12.57 17.19 20.41 22.53 23.36 23.08 21.34 18.44 14.4 9.02 6.54 11.75 15.15 16.88 16.81 14.82 11.13 5.82 0 0.04 0.02 0 0.01 0 1.58 4.75 6.58 6.98 5.91 3.29 0 0 0.03 0.06 0.01 0 0.63 6.87 11.64 14.73 16.16 16.08 14.3 10.88 5.82 0 0 0 8.11 14.5 19.15 22.48 24.19 24.04 22.44
0 0 0.03 0.03 2.47 8.3 12.94 16.31 18.43 19.41 18.86 17.18 14.3 10 4.52 0.05 0 0.06 0.12 0.01 0.02 0.91 2.55 2.87 1.88 0.01 0.06 0.07 0.01 0 0 0.14 7.77 13.66 17.8 20.31 20.95 19.83 16.86 12.33 5.97 0.08 0.04 0.06 4.85 10.65 15.2 18.5 20.64 21.43 21.17 19.45 16.61 12.43 7.16 8.07 13.25 16.86 18.41 18.15 16.34 12.73 7.28 0.04 0.01 0.02 0.08 0 0.63 5.33 8.66 10.47 10.83 9.72 7.23 3.34 0.03 0 0 0 0.05 0 5.91 10.51 13.62 15.15 14.95 13.18 9.77 4.8 0 0.06 0.87 8.94 15.47 20.14 23.52 24.98 24.93 23.47
0.01 0.03 0.02 0.07 0 3.92 8.57 12.03 14.07 14.91 14.56 12.92 9.85 5.62 0.12 0.09 0 0.04 0 0.05 0 0.06 0.01 0.91 4.19 6.28 7.24 6.9 5.38 2.64 0 2.24 9.94 15.91 20.07 22.44 23.17 21.98 19.21 14.59 8.24 0.16 0.09 0.01 4.59 8.31 12.04 15.29 17.51 18.28 17.9 16.15 13.39 9.26 3.93 7.96 13.13 16.52 18.18 18.07 16.19 12.55 7.02 6.56 5.36 3.05 0 0.1 3.03 7.85 11.12 12.91 13.33 12.17 9.61 5.73 0.21 0 0 0 0.03 0 3.17 7.97 11.06 12.42 12.33 10.6 7.17 2.12 0 0 0.36 8.3 14.77 19.59 22.77 24.32 24.38 22.8
0.06 2.56 5.79 7.38 7.16 5.63 2.97 6.38 8.44 9.38 8.83 7.2 4.3 0.03 0 0 0.07 0.07 0 0.03 0 0 2.29 6.98 10.26 12.31 13.37 12.95 11.5 8.68 4.69 2.75 10.42 16.28 20.54 22.89 23.58 22.54 19.56 15.06 8.77 0.57 0 3.8 8.66 12.45 14.82 16.19 16.06 14.9 13.53 11.88 8.99 5.1 5.74 5.97 11.06 14.5 16.16 16.13 14.08 11.61 12.65 12.66 11.51 8.92 5.51 0.73 4.07 8.84 12.13 13.85 14.26 13.17 10.65 6.75 1.34 0 0 0 0.01 0 0 3.69 6.67 8.13 8.13 6.22 2.92 0 0 0.04 0.03 5.97 12.47 17.36 20.55 22.05 22.08 20.41
4.19 8.9 12.1 13.76 13.73 11.94 8.71 3.77 1.55 2.35 1.89 0.36 0 0 0 0 0 0.02 0 0.04 0 1.49 7.27 11.79 15.17 17.2 18.23 17.92 16.34 13.62 9.71 4.39 9.09 14.99 19.24 21.63 22.29 21.18 18.3 13.76 7.37 0 0.58 6.59 11.6 15.25 17.67 19.03 19.07 17.84 15.47 11.86 9.56 11.57 12.32 11.59 9.72 10.79 12.35 12.28 14.19 16.48 17.56 17.55 16.27 13.91 10.27 5.68 3.63 8.34 11.58 13.43 13.86 12.7 10.19 6.19 0.88 0 0.09 0 0 0 0.08 0 0.7 2.27 2.11 0.37 0 0 0.04 0 0.02 2.22 8.56 13.47 16.59 18.25 18.17 16.64
9.03 13.7 16.85 18.55 18.44 16.9 13.42 8.48 2.01 0.01 0 0 0 0.01 0 0 0.07 0 0.03 0.1 0 5.13 11.01 15.47 18.85 20.9 21.85 21.41 20 17.22 13.35 8.03 6.11 11.93 16.22 18.61 19.28 18.05 15.36 10.78 4.3 0 2.38 8.39 13.36 16.98 19.44 20.65 20.71 19.56 17.17 13.61 14.76 16.76 17.39 16.76 14.76 11.51 10.07 14.54 17.99 20.16 21.27 21.26 19.9 17.62 14.01 9.27 3.49 6.43 9.69 11.5 11.84 10.81 8.29 4.36 0 0.05 0 0 0.04 0 0.08 0.06 0 0 0.01 0.03 0.02 0.02 0 0 0 0 3.16 7.86 11.1 12.78 12.7 11.11
12.05 16.81 20.08 21.68 21.61 19.9 16.58 11.78 5.16 0.01 0 0 0.01 0 0.03 0.08 0.01 0 0 0.05 0.62 7.56 13.34 17.91 21.25 23.33 24.24 23.89 22.44 19.72 15.81 10.57 4.2 7.24 11.43 13.81 14.49 13.39 10.59 5.92 0.06 0 2.76 8.78 13.83 17.42 20.05 21.28 21.3 20 17.73 15.11 18.57 20.59 21.24 20.52 18.65 15.29 12.48 17.08 20.53 22.87 23.82 23.7 22.39 20.05 16.61 11.86 5.99 3.14 6.39 8.19 8.57 7.5 4.97 1.02 0 0.02 0 0.07 0 0 0.08 0 0 0.12 0 0.06 0 0 0 0 0.04 0.06 0.11 0.84 4.01 5.63 5.66 3.94
13.51 18.39 21.63 23.14 23.11 21.5 18.12 13.27 6.68 0 0.01 0 0.05 0.01 0.01 0 0 0 0.03 0.02 1.79 8.83 14.53 19.12 22.45 24.66 25.53 25.28 23.65 20.86 17.01 11.81 5.45 0.64 4.94 7.33 7.9 6.88 3.98 0 0 0 2.08 8.14 12.98 16.72 19.22 20.45 20.58 19.3 16.96 17.69 20.92 23 23.75 23.04 21.07 17.92 13.97 18.46 21.84 24.09 25.19 25.06 23.76 21.58 17.86 13.27 7.28 7.34 7.11 5.47 3.75 2.63 0.08 0.01 0 0 0.01 0.04 0.04 0.01 0.07 0 0.04 0 0.03 0 0.04 0 0 0 0.04 0 0.02 0 0.03 0 0 0.04
13.43 18.37 21.47 23.11 23.02 21.4 18.06 13.24 6.62 0 0.05 0.01 0.04 0.04 0 0.03 0 0 0.01 0 1.86 8.81 14.54 19.07 22.46 24.5 25.51 25.21 23.64 20.83 17.02 11.81 5.41 0.02 0 0 0 0.01 0 0.08 0 0.03 0.03 6.12 11.09 14.77 17.19 18.52 18.56 17.36 14.97 18.81 22.16 24.21 24.87 24.22 22.34 19.13 14.4 18.72 22.13 24.21 25.4 25.26 24.04 21.64 18.17 13.46 9.8 11.49 11.38 9.64 6.2 1.15 0 0 0.03 0 0 0.1 0 0 0.1 0.01 0 0.02 0 0 0.05 0 0.02 0.09 0.08 0.07 0.04 0 0 0 0.04 0
11.69 16.56 19.91 21.36 21.32 19.66 16.3 11.37 4.87 0 0 0 0 0 0 0.04 0.03 0.02 0.82 1.62 0.66 7.51 13.38 17.95 21.23 23.35 24.24 24 22.47 19.76 15.64 10.54 4.32 0 0.04 0 0 0 0 0 0 0 0 3.04 7.95 11.63 14.03 15.38 15.43 14.14 13.96 18.69 22.01 24.02 24.81 24.16 22.16 18.86 14.4 17.73 21.18 23.48 24.57 24.4 23.19 20.72 17.24 12.51 12.3 13.95 13.87 12.14 8.72 3.53 0 0 0 0 0.81 4.4 6.53 7.27 6.47 4.44 0.75 0 0.14 0.05 0 0 0 0 0.08 0 0 0 0 0 0 0
8.38 13.3 16.42 17.89 17.93 16.27 13.01 8.11 1.6 0 0 0 0 0 0.03 0 0.03 4.66 7.6 8.55 7.54 5.11 11.07 15.4 18.79 20.96 21.86 21.47 19.96 17.27 13.31 8.18 1.84 0 0 0 0.02 0.09 0.02 0 0.01 0 0 0.01 3.57 7.22 9.71 11.01 11.07 9.78 12.43 17.17 20.46 22.51 23.22 22.61 20.63 17.45 12.72 15.75 19.12 21.27 22.45 22.34 21.08 18.64 15.14 10.39 13.21 14.73 14.67 12.91 9.64 4.4 0.02 0 0 1.68 6.7 10.4 12.55 13.34 12.48 10.38 6.73 1.6 0 0.03 0 0 0 0 0.04 0.05 0 0 0.01 0.01 0.01 0.1
3.48 8.25 11.44 13.07 13.11 11.36 8.1 3.07 0 0 0 0 0 0.08 0.01 0 4.75 9.71 12.55 13.45 12.57 9.55 7.24 11.93 15.2 17.37 18.17 18.01 16.41 13.75 9.75 4.5 0.96 3.83 5.56 6.15 5.58 3.87 1.07 0 0.05 0.04 0 0 0 1.69 4.18 5.38 5.4 4.24 9.62 14.34 17.67 19.81 20.44 19.91 17.93 14.55 9.95 12.34 15.86 18.01 19.08 19.07 17.84 15.4 11.93 9.02 12.32 13.92 13.87 12.07 8.75 3.52 0 0.08 0 6.21 11.27 14.96 17.13 17.78 17.12 14.81 11.24 6.16 0 0 0.07 0 0 0.06 0.07 0 0.05 0 0.03 0.03 0.04 0
0 1.68 4.86 6.4 6.37 4.69 1.44 0.03 0 0 0 0 0 0 0 1.02 7.7 12.56 15.46 16.45 15.39 12.47 7.57 7.07 10.33 12.51 13.3 13.01 11.5 8.84 4.84 2.66 6.56 9.38 11.22 11.78 11.18 9.47 6.61 2.53 0 0.05 0 0.04 0.04 0.01 0 0.03 0 0.04 5.58 10.26 13.58 15.59 16.36 15.65 13.77 10.51 5.83 7.97 11.47 13.71 14.71 14.72 13.46 10.91 7.46 6.48 9.63 11.33 11.26 9.58 6.08 1.11 0 0.12 2.62 9.19 14.41 18.01 20.23 20.96 20.28 17.96 14.31 9.16 2.58 0.02 0.03 0.03 0.05 0.01 0 0.01 0.03 0.04 0.01 0 0 0.02
0.03 0.03 0 0 0 0 0.02 0.02 0 0.05 0.04 0 0 0 0 2.09 8.82 13.62 16.4 17.4 16.5 13.54 8.57 1.77 4.24 6.42 7.33 6.92 5.52 2.71 1.87 7.16 11.07 13.92 15.63 16.32 15.68 13.87 10.98 7.02 1.97 0.06 0 0 0 0 0 0 0 0 0.13 4.83 8.12 10.21 10.87 10.22 8.26 7.64 10.22 11.15 10.65 8.46 9.21 9.19 7.89 5.45 1.91 2.08 5.54 7.11 7.1 5.28 1.89 0 0 0.01 4.27 10.9 15.98 19.64 21.83 22.61 21.81 19.53 15.95 10.92 4.24 0.04 0.01 0.06 0 0.08 0.11 0 0 0 0.19 4.08 6.33 6.88
0.05 0.01 0 0 0 0.02 0 0 0 0.06 0.07 3.22 5.01 5.59 4.68 2.6 7.85 12.73 15.64 16.53 15.56 12.56 7.74 0.89 0 0.04 0.04 0 0.04 0 5.33 10.54 14.5 17.33 19 19.48 18.98 17.26 14.39 10.47 5.32 0 0 0.04 0 0.07 0.04 0.08 0 0 0.04 0.06 1.38 3.29 4.03 3.41 6.95 11.03 13.62 14.61 14.03 11.88 8.27 3.07 1.14 0 0 0 0.01 1.41 1.28 0 0 0 0 0.03 4.48 11.11 16.16 19.72 21.99 22.74 21.94 19.66 16.12 11.1 4.39 0.02 0 0.09 0.02 0 0 0.04 0 0.39 6.1 10.01 12.29 12.84
0 0.03 0 0.03 0 0.05 0 0 0.02 0.71 5.27 8.58 10.45 10.99 10.1 7.99 4.96 9.88 12.81 13.65 12.75 9.76 4.84 0.02 0.11 0.01 0.01 0.01 0 1.26 7.48 12.66 16.64 19.57 21.19 21.72 21.13 19.47 16.71 12.62 7.6 1.27 0 0 0 0 0.04 0.04 0 0.08 0.05 0.11 2.22 2.9 1.79 3.29 8.88 12.85 15.42 16.37 15.82 13.72 10 4.83 0.04 0 0.04 0.09 0 0 0 0.03 0 0 0.02 0 3.12 9.71 14.87 18.41 20.65 21.3 20.68 18.44 14.8 9.66 3.03 0.03 0.01 0 0.01 0.01 0 0.01 0.02 4.57 10.3 14.33 16.55 17.05
0 0 0.02 0.01 0.03 0 0 0 0.06 4.75 9.28 12.64 14.57 15.03 14.2 12.03 8.49 5.04 7.87 8.91 7.89 4.96 0.1 0.02 0.01 0 0.05 0 0 2.34 8.65 13.78 17.7 20.51 22.28 22.92 22.18 20.55 17.75 13.64 8.59 2.34 2.49 4.84 5.58 4.57 1.79 0.03 0.07 0 3.66 7.32 9.62 10.1 9.17 6.74 9.03 13.1 15.59 16.54 16.08 14.08 10.28 5.07 0.02 0.01 0.01 0.09 0.01 0.06 0 0.03 0 0 0.03 0.03 0.42 6.94 12.01 15.73 17.96 18.63 17.84 15.75 12 6.91 0.39 0 0.01 0 0 0.01 0.01 0 0 7.19 12.92 16.84 19.03 19.56
0 0.06 0 0 0.02 0.01 0 0.02 1.36 7.44 11.96 15.3 17.12 17.72 16.98 14.77 11.09 6.23 1.17 2.13 1.12 0.05 0.04 0 0.01 0 0 0 0 2.3 8.56 13.52 17.66 20.49 22.21 22.82 22.14 20.45 17.7 13.63 8.51 5.32 9.41 11.81 12.57 11.49 8.81 4.39 0.04 4.02 9.39 13.09 15.28 15.88 14.98 12.47 8.38 11.87 14.36 15.36 14.89 12.64 8.99 3.94 0 0 0.02 0 0 0 0.05 0 0 1.43 2.28 1.77 0 2.73 7.81 11.52 13.74 14.39 13.76 11.45 7.86 2.73 0.02 0.02 0.02 0 0 0.02 0.04 0 0.54 7.92 13.6 17.65 19.9 20.37
0.02 0 0 0.01 0 2.76 5.73 7.3 7.56 8.69 13.31 16.59 18.45 19.04 18.25 16.02 12.44 7.45 2.43 2.83 1.95 0.1 0 0 0.04 0 0 0 0.08 1.01 7.36 12.4 16.47 19.32 20.99 21.43 20.92 19.39 16.41 12.4 7.28 10.58 14.63 17.09 17.77 16.74 13.99 9.64 3.45 8.26 13.64 17.27 19.48 20.2 19.23 16.54 12.55 9.11 11.54 12.51 12.01 9.96 6.17 1.16 0.01 0 0 0.01 0.06 0 0 1.49 4.92 7 7.81 7.29 5.45 2.22 2.12 5.83 7.99 8.71 8.08 5.83 2.13 0.08 0.01 0.02 0.03 0.05 0.01 0 0 0 0.07 6.99 12.62 16.58 18.9 19.46
0.08 0 0.07 0 4.94 9.13 12.1 13.69 13.88 12.9 13.32 16.54 18.45 19 18.13 15.92 12.4 7.44 9.02 9.45 8.57 6.76 3.72 0.07 0 0.03 0 0 0.06 0.02 4.94 10.14 14.07 17.04 18.61 19.17 18.66 16.81 14.09 10.12 8.3 14.13 18.21 20.61 21.39 20.3 17.6 13.08 7.02 10.9 16.14 19.94 22.13 22.63 21.83 19.32 15.24 9.62 7.28 8.17 7.64 5.5 1.87 0 0 0 0.09 0 0 0.03 1.03 5.65 9.06 11.25 11.92 11.46 9.57 6.45 1.89 0.02 0.98 1.61 0.88 0 0 0.07 0.02 0.02 0.01 0 0 0 0.02 0.03 0 4.3 9.94 14.03 16.2 16.79
1.89 1.7 0.02 4.21 9.83 14.12 17.09 18.7 18.93 17.79 15.48 15.1 17.1 17.54 16.7 14.55 10.99 12.95 14.48 14.79 14.09 12.2 9 4.85 0 0.08 0 0 0 0.08 1.43 6.63 10.72 13.46 15.18 15.77 15.17 13.49 10.6 6.59 10.14 15.94 20.16 22.49 23.15 22.08 19.47 15.03 8.9 11.99 17.29 21.03 23.1 23.69 22.79 20.29 16.3 10.54 3.49 2.34 1.71 0.03 0 0 0.03 0.02 0.01 0 0 0.05 3.91 8.61 11.97 14.1 14.93 14.27 12.48 9.27 4.89 0.04 0.03 0 0 0 0 0 0.02 0 0 0.02 0 0.11 0.02 0.02 0.02 0.04 5.57 9.6 11.89 12.46
8.69 8.5 6.8 8.01 13.55 17.88 20.84 22.38 22.67 21.52 19.14 15.45 14.21 14.7 13.93 11.68 14.45 17.13 18.61 19.1 18.17 16.41 13.36 9.09 3.78 0.07 0.26 1.72 1.9 1.14 0 2.05 5.97 8.89 10.6 11.11 10.59 8.82 5.93 2.73 10.14 16.06 20.21 22.61 23.21 22.34 19.54 15.11 9.06 11.47 16.8 20.56 22.69 23.21 22.27 19.91 15.78 10.23 3.06 0.01 0.03 0 0 0.04 0.02 0.07 0.01 0 0.06 0 5.39 10.16 13.6 15.65 16.48 15.98 14.16 10.95 6.43 0.58 0.01 0.83 0.51 0 0 0 0 0 0.12 0.07 0 0.04 0.03 0 0 0.02 0 3.46 5.72 6.29
14 13.74 12.04 10.24 15.99 20.13 23.12 24.73 25.04 23.95 21.45 17.77 12.65 10.58 9.79 13.81 17.66 20.36 21.74 22.18 21.43 19.5 16.35 12.23 6.8 4.64 7.1 8.63 8.89 8.03 6.11 3.08 0.23 3.07 4.77 5.39 4.85 7.08 9.4 10.19 9.37 14.52 18.71 21.02 21.63 20.69 17.96 13.54 7.36 9.43 14.79 18.47 20.69 21.26 20.22 17.87 13.9 8.11 1.01 0.01 0 0 0 0.02 0 0.03 0.02 0 0 0.06 5.78 10.42 13.86 15.92 16.71 16.23 14.36 11.15 6.61 4.38 7.32 8.61 8.2 5.84 2.01 0.07 0 0 0 0 0.05 0.06 0.05 0.07 0.02 0 0.04 0.06 0 0
17.81 17.57 15.76 12.72 16.93 21.17 24.22 25.76 26.02 24.88 22.55 18.79 13.76 7.27 10.79 15.76 19.58 22.3 23.81 24.1 23.46 21.54 18.38 14.22 8.93 10.33 12.92 14.37 14.76 13.86 11.92 8.83 4.63 0.03 0 3.7 9.38 13.22 15.73 16.52 15.65 13.17 15.34 17.72 18.43 17.37 14.78 10.28 4.07 5.82 11.05 14.82 16.95 17.66 16.65 14.2 10.21 4.58 0.03 0 0 0.02 0.06 0.05 0.05 0.01 0 0.08 0 0 4.65 9.35 12.8 14.84 15.73 15.18 13.37 10.03 5.63 10.27 13.38 14.64 14.06 12.04 8.07 2.39 0 0 0 0.02 0 0 0.02 0.06 0.09 0 0.03 0.04 0 0
20.23 19.99 18.35 15.14 16.59 20.94 23.82 25.53 25.66 24.65 22.21 18.49 13.32 6.96 11.66 16.5 20.42 23.06 24.64 24.99 24.21 22.25 19.21 15.07 11.44 15.08 17.67 19.14 19.39 18.62 16.6 13.51 9.41 4.06 1.18 8.27 14.04 17.87 20.36 21.15 20.28 17.87 13.75 12.82 13.45 12.41 9.77 5.25 0.04 0.69 6 9.75 11.96 12.48 11.55 10.29 7.54 3.07 0 0 0 0.04 0.06 0 0.01 0 0.05 0.09 0 0.04 2.3 7.02 10.47 12.59 13.32 12.8 10.89 7.77 9.8 14.55 17.65 18.97 18.44 16.18 12.24 6.71 0 0.02 0 0 0.03 0.01 0.09 0 0 0 0 0 0.03 0
21.26 20.86 19.15 16.11 14.94 19.25 22.15 23.77 24 22.9 20.51 16.87 11.73 5.23 11.29 16.26 20.13 22.82 24.33 24.64 23.88 22.06 18.92 14.7 14.97 18.69 21.22 22.68 22.85 22.19 20.14 17.07 12.9 7.67 4.11 11.32 16.98 21.02 23.4 24.08 23.28 20.8 16.75 10.97 6.7 5.81 3.09 0 0 0 0.98 7.53 12.05 15.06 16.08 15.2 12.53 8.02 1.71 0.01 0.02 0.11 0 3.6 5.71 6.24 5.19 2.52 0 0 0.03 3.28 6.83 8.83 9.62 8.97 7.26 6.01 12.47 17.22 20.16 21.42 21.03 18.86 14.86 9.2 1.79 0 0.09 0 0.01 0.03 0 0 0.04 0.07 0.01 0 0 0.06
20.63 20.48 18.74 15.6 11.98 16.21 19.21 20.87 21.1 19.99 17.61 13.78 8.78 5.1 9.88 14.85 18.63 21.27 22.85 23.12 22.37 20.38 17.5 13.28 17.52 21.19 23.74 25.08 25.45 24.66 22.57 19.5 15.36 10.05 5.5 12.7 18.27 22.34 24.78 25.49 24.69 22.17 18.12 12.34 5.02 0 0.04 0 0 0.03 4.2 10.57 15.31 18.11 19.04 18.3 15.51 11.1 4.75 0 0.05 0 4.79 8.49 10.71 11.11 10 7.42 3.38 0 0.05 0.01 1.67 3.84 4.7 4.06 2.18 6.85 13.27 18.01 20.96 22.27 21.77 19.6 15.69 9.96 2.64 0.02 0 0.03 0 0.03 0 0 0 0.01 0 0.02 0.1 0.05
18.64 18.43 16.83 13.68 8.89 11.92 14.87 16.44 16.74 15.69 15.71 15.1 12.99 9.67 7.25 12.23 16.02 18.71 20.25 20.58 19.8 17.85 14.86 14.04 18.82 22.43 25.05 26.47 26.7 25.9 23.86 20.92 16.62 11.4 5.23 12.46 18.2 22.16 24.45 25.34 24.47 21.99 17.87 12.14 4.83 0.02 0.02 0 0.03 0.04 5.34 11.83 16.42 19.43 20.3 19.63 16.9 12.38 6.09 0.06 0.01 3 8.27 11.83 13.95 14.53 13.42 10.75 6.59 0.86 0.06 0 0 0 0 0 0 5.89 12.44 17.15 20.14 21.32 20.89 18.69 14.76 9.05 1.74 0.03 0.1 0.09 0 0 0 0 0.86 3.85 5.58 5.73 4.35 1.59
15.37 15.01 13.43 10.17 5.68 6.31 9.23 12.46 16.03 18.13 18.94 18.4 16.42 13.05 8.28 8.44 12.27 14.91 16.46 16.81 16.01 14.11 11.15 14.2 19.06 22.63 25.26 26.69 26.94 26.14 24.21 21.11 16.87 11.62 5.11 10.67 16.18 20.37 22.61 23.44 22.51 20.06 16.09 10.32 2.9 0.01 0 0 0.05 0 4.65 11.24 15.94 18.77 19.82 18.98 16.2 11.82 5.45 0 0.05 4.7 9.95 13.63 15.72 16.3 15.28 12.55 8.31 2.62 0 0 0 0.01 0 0 0.01 3.4 9.71 14.45 17.49 18.74 18.33 16.1 12.13 6.53 0 0.03 0 0 0 0 0.04 2.06 6.65 9.76 11.44 11.56 10.15 7.46
14.65 14.39 12.79 9.66 5.19 3.16 9.4 14.49 17.92 20.1 20.94 20.29 18.31 15.01 10.12 4.02 7.36 10.01 11.59 11.85 11.19 9.24 7.5 13.24 18.03 21.75 24.21 25.74 26.06 25.15 23.25 20.21 15.97 10.61 4.29 7.12 12.77 16.83 19.15 19.92 19.09 16.64 12.43 6.75 0.06 0 0.03 0.15 0 0 2.35 8.82 13.53 16.37 17.36 16.48 13.83 9.47 3.08 0 0.04 4.93 10.2 13.78 15.92 16.41 15.33 12.7 8.65 2.78 0 0 0 0.01 0 0.05 0.06 0.04 5.32 10.14 13.16 14.31 13.89 11.66 7.86 2.12 0 0 0.04 0 0 0 0.43 6.52 11.07 14.13 15.86 16 14.7 11.89
19.39 19.2 17.58 14.57 9.9 3.94 9.94 14.92 18.4 20.69 21.48 20.75 18.77 15.43 10.67 4.47 1.26 4.03 5.62 5.78 5.05 3.24 5.39 11.31 16.15 19.74 22.29 23.69 24.06 23.13 21.23 18.17 13.94 8.52 2.25 2 7.58 11.67 14.02 14.73 13.93 11.52 8.45 6.55 3.5 0 2.29 4.3 4.54 3.01 0.04 4.68 9.26 12.19 13.13 12.32 9.65 5.18 0.06 0.01 0.04 3.58 8.74 12.38 14.54 15.01 14.01 11.38 7.22 1.45 0.03 0.03 0 0.06 0.02 0.06 0.02 0 0.02 4.12 7.03 8.36 7.78 5.65 1.73 0.03 0.01 0 0 0 0 0.02 3.4 9.49 14.07 17.15 18.69 18.96 17.57 14.74
22.65 22.55 20.89 17.83 13.29 7.33 8.99 14.02 17.6 19.87 20.62 19.91 17.97 14.66 9.82 3.79 0 0.94 2.21 1.76 0.06 0 2.2 8.14 12.94 16.61 19.08 20.59 20.78 19.98 18.04 14.97 10.73 5.39 0.07 0 1.86 6.58 10.33 12.91 14.41 14.77 13.93 12.02 8.94 5.85 9.54 11.59 11.74 10.27 7.07 2.26 3.23 5.98 7.01 6.35 3.56 0.03 0.05 0.11 0.01 0.41 5.82 9.53 11.58 12.12 10.99 8.43 4.24 0 0.07 0.05 0 0 0 0 0.04 0.05 0.07 0.03 0.07 0.31 0 0.06 0.09 0 0 0 0.04 0.82 0.83 0.07 4.89 10.91 15.43 18.65 20.18 20.27 19.01 16.24
24.63 24.5 22.83 19.76 15.29 9.16 6.89 11.8 15.35 17.59 18.39 17.77 15.74 12.42 7.64 1.28 5.12 7.95 9.2 8.75 6.74 3.03 0 3.87 8.7 12.2 14.85 16.32 16.54 15.76 13.77 10.65 6.59 1.14 0.06 0.11 6.03 10.96 14.56 17.18 18.72 19.01 18.19 16.35 13.34 11.39 15.16 17.03 17.38 15.91 12.79 7.74 1.19 0 0 0 0.02 0.03 0.06 0 0 0.06 1.25 5.02 7.02 7.59 6.49 3.95 0.03 0 0.07 0.23 0.62 0.04 0 0.02 0 0.02 0.01 0 0.02 0 0 0 0.08 0.06 0 4.05 6.95 8.32 8.27 6.84 4.75 10.82 15.46 18.57 20.23 20.3 18.94 16.16
25.19 24.96 23.33 20.24 15.75 9.69 3.24 8.21 11.75 13.91 14.62 14.04 12.14 8.73 4.05 5.97 10.46 13.32 14.51 14.08 12.06 8.35 3.06 0.02 3.18 6.92 9.42 10.84 11.19 10.32 8.42 5.28 1.08 1.44 0.83 3.29 9.28 14.02 17.8 20.4 21.86 22.18 21.43 19.5 16.44 15.21 18.97 20.78 21.11 19.63 16.59 11.6 5.07 0 0 0.03 0 0 0 0 0.03 0.02 0.01 0.1 1 1.38 0.4 0 0 1.68 5.69 7.96 8.52 7.29 4.26 0.06 0 0.03 0 0 0.06 0.05 0.02 0.01 0.02 0.09 5.77 10.02 12.9 14.42 14.43 12.9 10.08 9.32 13.88 17.08 18.59 18.81 17.41 14.68
24.24 23.95 22.28 19.1 14.7 8.61 1.38 3.14 6.69 8.96 9.69 9.08 7.15 3.75 3.66 9.78 14.2 17.11 18.29 17.86 15.8 12.21 6.81 0.02 0 0.49 2.83 4.32 4.41 3.79 2.5 5.52 7.3 7.76 7.13 5.5 11.2 16.12 19.84 22.39 23.87 24.13 23.46 21.53 18.51 17.42 21.06 23.06 23.38 21.94 18.69 13.85 7.28 0.09 0.01 0.03 0 0 0 0 0 0 0 0 0 0 0.03 0.01 1.87 7.71 11.81 14.02 14.59 13.43 10.43 5.67 0.08 0 0 0.01 0.02 0.06 0 0.02 0.08 4.74 10.53 14.81 17.5 18.97 19 17.55 14.67 10.46 11.01 14.03 15.75 15.87 14.46 11.66
21.71 21.48 19.84 16.93 12.3 6.16 0 0 0.27 2.53 3.28 2.71 0.7 0 5.75 11.85 16.36 19.28 20.44 20 17.99 14.23 8.93 1.95 0 0.06 0.01 0.04 0 3.3 7.48 10.57 12.25 12.85 12.18 10.16 12.27 17.02 20.76 23.4 24.82 25.22 24.42 22.43 19.37 17.81 21.56 23.54 23.81 22.34 19.15 14.19 7.61 0 0 0 0 0.08 0.1 0 0 0 0 0 0 0.06 0.04 0 6.1 12.03 16.07 18.22 18.89 17.63 14.68 10.06 3.6 4.04 6.42 7.08 6.13 3.31 0 0.08 0.83 7.98 13.67 18 20.77 22.25 22.25 20.82 18.07 13.68 7.91 9.58 11.16 11.26 9.95 7.07
17.78 17.79 15.93 12.91 8.47 2.51 0 0.02 0.02 0.07 0.07 0 0 0 6.28 12.42 16.82 19.59 20.91 20.47 18.47 14.76 9.45 2.42 0 0 0 0.02 1.62 7.09 11.31 14.36 16.03 16.65 15.87 13.97 11.99 16.87 20.34 23.16 24.54 24.98 24.02 22.2 19.16 16.55 20.16 22.22 22.51 21.03 17.82 12.93 6.35 0.06 0.05 0.04 0 0.01 0.12 0.02 0.06 0.03 0 0.04 0 0 0 1.06 8.7 14.45 18.6 20.91 21.41 20.13 17.24 12.55 6.56 10.72 13.26 13.94 12.83 10.08 5.57 0.01 2.64 9.75 15.47 19.78 22.63 24.04 24.05 22.59 19.73 15.45 9.73 3.65 5.15 5.4 3.9 1.18
12.51 12.33 10.67 7.52 3.01 0 1.3 2.53 2.35 0.97 0 0 0 0.09 5.07 11.24 15.65 18.55 19.77 19.31 17.24 13.62 8.34 1.4 0.06 0.02 0.04 0 4.19 9.59 13.9 16.89 18.68 19.17 18.48 16.5 13.35 15.54 19.17 21.81 23.29 23.55 22.84 20.92 17.91 13.7 17.16 19.2 19.45 18.03 14.84 9.89 5.03 5.55 4.51 2.09 0.01 0 1.44 5.04 6.71 6.58 4.52 0.48 0.02 0.01 0.02 1.94 9.46 15.34 19.33 21.68 22.27 20.96 18.03 13.34 11.52 15.83 18.2 18.83 17.88 15.13 10.6 4.29 2.97 10.11 15.82 20.14 23.03 24.46 24.38 22.93 20.01 15.88 10.19 3 0 0 0.06 0.01
5.62 5.41 3.84 0.83 2.41 6.01 8.29 9.4 9.29 8.08 5.6 1.86 0 0 2.23 8.46 12.87 15.76 16.94 16.49 14.51 10.75 5.42 0 0.07 0.03 0.06 0.03 5.38 10.92 15.17 18.23 19.9 20.58 19.7 17.84 14.64 13.12 16.74 19.44 20.82 21.13 20.4 18.45 15.34 11.29 12.48 14.45 14.66 13.33 10.09 8.82 10.62 11.17 10.21 7.81 3.99 1.84 7.39 10.96 12.7 12.52 10.45 6.45 1.15 4.07 5.5 5.69 8.59 14.29 18.39 20.72 21.32 20.11 17.14 12.43 14.82 18.97 21.41 22.16 21.07 18.38 13.87 7.67 2 9.05 14.79 19.05 21.87 23.37 23.3 21.88 19 14.79 9.03 1.86 0 0.08 0 0.02
0 0 0 3.47 8.2 11.69 14.17 15.17 15.03 13.8 11.32 7.67 2.84 0 0 4.07 8.52 11.27 12.57 12.08 10.04 6.34 1.03 0 0.03 0 0 0.06 5.59 11.04 15.18 18.29 20.05 20.49 19.82 17.88 14.69 10.29 13.26 15.72 17.27 17.6 16.83 14.92 11.85 7.69 6.13 8 8.3 6.86 9.79 13.08 14.9 15.35 14.37 12.05 8.21 5.95 11.45 14.99 16.73 16.59 14.5 10.46 7.09 9.85 11.28 11.63 10.7 11.69 15.71 17.94 18.61 17.39 14.49 10.37 16.31 20.48 22.98 23.66 22.68 19.84 15.32 9.09 1.16 6.56 12.21 16.6 19.35 20.86 20.85 19.35 16.58 12.31 6.59 0 0.04 0.02 0 0.13
0.02 0 2.14 8.07 12.68 16.28 18.66 19.79 19.67 18.35 15.85 12.1 7.33 1.05 0 0.03 2.4 5.23 6.53 6 4.11 0.28 0 0.03 0.07 0.05 1.75 5.37 7.89 9.74 14.1 17.15 18.93 19.37 18.68 16.73 13.45 9.1 8.44 11.04 12.54 12.84 12.11 10.09 7.19 3.02 0 0.06 1.99 8.01 12.56 15.89 17.77 18.16 17.29 14.89 11.09 8.12 13.63 17.22 18.91 18.71 16.62 12.69 11.73 14.44 15.91 16.14 15.15 12.9 11.22 13.57 14.1 12.83 9.94 10.19 16.08 20.36 22.75 23.51 22.45 19.69 15.13 8.98 0.93 2.6 8.39 12.68 15.54 16.95 16.96 15.47 12.63 8.36 5.93 5.02 2.94 0.01 0.11 0.04
0.01 0.02 5.52 11.41 16.13 19.65 22.06 23.1 22.98 21.75 19.14 15.55 10.46 4.52 0 0.05 0.06 0 0.01 0 0.11 0 0.08 0 0.09 1.77 6.5 10.12 12.49 13.68 13.77 14.72 16.49 17.06 16.25 14.31 11.08 6.74 2.7 5.25 6.72 7.04 6.18 4.32 1.31 0 0.04 0.08 3.39 9.45 14.1 17.33 19.14 19.62 18.71 16.2 12.53 8.39 13.91 17.51 19.19 19 16.99 12.97 14.85 17.73 19.21 19.53 18.52 16.28 12.69 7.95 8.02 6.67 3.76 8.1 14.11 18.37 20.85 21.46 20.48 17.72 13.09 6.9 0.06 0 3 7.24 10.16 11.62 11.49 10.18 9.51 11.47 11.93 11.15 8.91 5.24 0.16 0
0 0.49 7.62 13.58 18.27 21.82 24.16 25.34 25.13 23.82 21.51 17.65 12.79 6.74 0 0.01 0.01 0 0.07 0 0.12 0 0.09 0 0 5.35 10.12 13.71 16.09 17.19 17.25 16.16 13.85 13.38 12.64 10.73 7.51 3.09 0 0 0 0.08 0.01 0.04 0 0 0 0 3.37 9.53 14.18 17.34 19.09 19.66 18.7 16.39 12.61 7.25 12.24 15.89 17.57 17.39 15.37 12.99 17.02 19.87 21.37 21.74 20.66 18.33 14.81 10.07 4.04 2.95 1.52 4.5 10.54 14.62 17.05 17.81 16.73 13.95 9.4 3.31 0.06 0 0 0.34 3.33 4.75 6.16 10.87 14.24 16.11 16.68 15.76 13.49 9.9 4.81 0
0.06 1.38 8.54 14.49 19.19 22.71 25.09 26.23 26.11 24.81 22.28 18.64 13.67 7.66 0.22 0 0 0 0 0 0.04 0 0 0 1.79 7.7 12.4 15.91 18.27 19.65 19.69 18.49 16.21 12.7 8.06 5.87 2.69 0.01 0 0.07 0 0 0 0 0 0.04 0 0.05 1.96 7.99 12.78 15.98 17.8 18.35 17.26 15.02 11.19 5.96 8.79 12.34 14.1 13.87 11.73 13.86 17.81 20.72 22.03 22.48 21.37 19.21 15.63 10.91 9.66 9.83 8.28 5.08 4.98 9.12 11.59 12.37 11.27 8.61 7.75 7.38 5.8 2.97 0 0 0 3.26 9.43 14.1 17.49 19.42 19.98 19.04 16.71 13.11 8.03 1.61
0.02 1.16 8.28 14.28 19.01 22.46 24.85 25.77 25.82 24.58 22.13 18.27 13.4 7.24 0.04 0.06 0.03 0 0.04 0 0.03 0 0 0 2.86 8.89 13.55 17.09 19.55 20.73 20.78 19.63 17.32 13.83 9.24 3.36 0 0.01 0 0.1 0.01 0 0.01 0.07 0.08 0 0.07 0 0.01 5.3 9.97 13.21 15.05 15.45 14.49 12.22 9.9 12.21 13.2 12.65 10.86 8.42 8.09 13.36 17.42 20.16 21.7 22 20.95 18.71 15.17 12.98 14.74 14.81 13.28 10.06 5.23 1.99 4.43 6.87 9.97 11.97 12.7 12.33 10.83 8.17 4.04 0 0 5.11 11.19 15.93 19.32 21.25 21.78 20.91 18.71 15.02 9.89 3.52
0 0.05 6.75 12.78 17.41 21.13 23.33 24.36 24.37 23 20.56 16.89 11.92 5.94 0.1 0 0.09 0.03 0 0 0 0 0.07 0.02 3.01 8.79 13.61 17.06 19.49 20.8 20.71 19.57 17.34 13.94 9.22 3.4 0 0 0 0 0.06 0.06 0.02 0 0 0 0.02 1.73 4.83 6.87 7.52 8.99 10.73 11.3 10.3 11.32 15.23 17.54 18.61 18.2 16.33 12.94 8.21 11.52 15.7 18.47 19.96 20.26 19.29 17 13.47 16.39 18.18 18.21 16.77 13.52 8.71 2.15 6.48 10.84 13.99 15.93 16.69 16.24 14.67 11.84 8 2.83 0.08 5.56 11.66 16.42 19.81 21.7 22.21 21.35 19.09 15.36 10.45 3.92
0.01 0.91 4.1 10.11 14.87 18.34 20.68 21.75 21.68 20.45 17.96 14.15 9.27 3.15 0.02 0.03 0.03 0 0 0.01 0 0 0 0.03 1.75 7.69 12.37 15.97 18.31 19.54 19.6 18.52 16.19 12.69 7.98 2.24 0 0 0.02 0 0.01 0.05 0.03 0.04 0 0.08 2.93 7.07 10.12 12.08 12.78 12.32 10.75 7.89 9.94 15.29 19.09 21.55 22.55 22.12 20.18 16.96 12.07 8.77 12.68 15.57 16.92 17.33 16.34 13.98 14.57 18.11 19.9 19.99 18.38 15.25 10.52 3.93 9.09 13.46 16.64 18.51 19.25 18.82 17.28 14.49 10.64 5.44 0 4.56 10.84 15.47 18.79 20.79 21.26 20.39 18.15 14.59 9.44 2.97
2.82 7.18 10.15 11.77 11.89 14.51 16.79 17.87 17.9 16.53 14.02 10.37 5.27 0.01 0 0.05 0.01 0.03 0 0.01 0.01 0.01 0.03 0 0 5.39 9.96 13.62 15.95 17.23 17.21 16.14 13.71 10.33 5.67 0 0 0.01 0.07 0 0.06 0 0 0 0.11 1.61 7.04 11.23 14.28 16.16 16.81 16.35 14.91 12.09 12.6 17.75 21.72 24.16 25.01 24.57 22.72 19.41 14.64 8.39 8.51 11.27 12.76 13.06 12.06 9.8 14.67 18.11 19.92 20.17 18.54 15.46 10.39 4.99 10.51 14.91 18.01 19.96 20.75 20.41 18.79 16.02 12.07 7.02 0.61 2.26 8.41 13.13 16.51 18.46 18.91 18.11 15.84 12.12 7.05 0.66
7.58 11.93 15 16.58 16.78 15.47 12.8 12.74 12.85 11.5 8.85 5.17 0.25 0 0 0 0.08 0.03 0.1 0 0.05 0 0 0 0 1.66 6.39 9.97 12.39 13.68 13.79 12.51 10.27 6.77 2.22 0.01 2.03 4.48 5.39 4.91 2.85 0.02 0 0 0.05 4.46 9.96 14.23 17.21 19.13 19.73 19.4 17.77 15 13.62 18.89 22.76 25.08 26.09 25.66 23.86 20.53 15.68 9.48 3.14 5.85 7.3 7.62 6.59 7.93 12.99 16.52 18.26 18.53 17.03 13.71 8.75 5.3 10.95 15.1 18.3 20.24 21.04 20.69 19.06 16.28 12.36 7.19 0.95 0 4.67 9.39 12.74 14.65 15.21 14.33 12.02 8.39 3.33 0
11.1 15.54 18.5 20.01 20.33 19 16.26 12.27 6.75 5.17 2.59 0.01 0 0.06 0.06 0 0 0.03 0 0 0.03 0.03 0.07 0.09 0 0.03 1.81 5.38 7.76 8.98 8.97 7.89 5.47 2.17 0 4.36 8.25 10.8 11.65 11.2 9.18 5.56 0.53 0 0 6.35 11.7 15.94 18.97 20.93 21.62 21.17 19.62 16.88 13.22 18.55 22.35 24.87 25.85 25.24 23.45 20.1 15.48 9.26 1.56 0 0.65 0.97 0.01 4.54 9.72 13.22 14.96 15.12 13.71 10.52 5.58 4.5 9.97 14.35 17.38 19.42 20.14 19.77 18.16 15.45 11.36 6.4 0.09 0.03 0.02 4.19 7.6 9.53 9.99 9.25 6.86 3.18 0 0
13.16 17.48 20.49 22.06 22.15 21 18.35 14.35 8.79 2.04 0 0 0.02 0.05 0.02 0.02 0.08 0.01 0.03 0.02 0 0 0 0.07 0 0 0.12 0 1.81 3.11 3.14 2.11 0 0 3.72 9.15 13.1 15.59 16.39 16.1 13.99 10.3 5.29 0 0.46 6.87 12.39 16.48 19.68 21.59 22.3 21.95 20.33 17.46 13.54 16.83 20.64 23.02 23.93 23.58 21.72 18.34 13.65 7.41 0.02 0.03 0.02 0 0.02 0.04 4.78 8.17 10.05 10.26 8.71 5.51 0.67 2.35 8.06 12.14 15.31 17.34 18.1 17.77 16.16 13.41 9.38 4.31 0.08 0.06 0.09 0 1.04 2.89 3.52 2.66 0.46 0 0.06 0
13.77 18.17 21.14 22.77 22.84 21.66 19.01 14.9 9.49 2.66 0 0 0.08 0.01 0 0 0 0.02 0 0.07 0 0 0 0 0 0.02 0 0.04 0.1 0 0 0.08 0.05 0.03 6.87 12.39 16.46 18.8 19.76 19.17 17.09 13.66 8.55 1.9 0.12 6.43 11.82 16.01 19.16 21.08 21.72 21.33 19.65 17.01 13 13.54 17.41 19.82 20.84 20.38 18.44 15.23 10.28 4.27 0.01 0.02 0.05 0 0.04 0 0.07 1.69 3.49 3.58 2.13 0 0 0 4.7 8.95 12.11 14.11 14.88 14.43 12.76 10.08 6.14 1.09 0 0 0.08 0 0 0.05 0.06 0 0.02 0 0.05 0
13.08 17.33 20.43 21.96 22.12 20.94 18.2 14.08 8.67 1.88 0 0 0.08 0 0 0.09 0 0 0 0 0 0.01 0.02 0 0.03 0.08 0 0.1 0.05 0 0 0 0 1.7 8.77 14.16 18.09 20.58 21.6 20.94 18.9 15.35 10.17 3.79 0.01 4.77 10.09 14.3 17.44 19.24 19.93 19.6 18 15.24 11.41 8.86 12.74 15.21 16.16 15.72 13.79 10.57 5.77 0 0 0 0.08 0.65 0.37 0.12 0 0 0 0.05 0 0 0.01 0.01 0.26 4.6 7.75 9.6 10.48 10.02 8.48 5.69 1.7 0.08 0.05 0.02 0 0 0 0.1 0.03 0 0 0 0 0.02
10.97 15.34 18.1 19.83 20.02 18.76 16.08 11.95 6.51 0.08 0 0.01 0.11 0.04 0 0.06 0 0 0 0.03 0.29 3.42 5.49 6.4 6.31 4.84 2.47 0.03 0 0 0 0 0.01 1.85 8.94 14.46 18.36 20.8 21.85 21.21 19.13 15.69 10.54 4.06 0 1.87 7.25 11.45 14.5 16.47 17.2 16.78 15.16 12.37 8.43 3.44 6.79 9.16 10.05 9.55 7.67 4.39 0.03 0 0.85 4.61 7.03 8.03 7.59 6 3 0 0 0 0.05 0 0.03 0 0 0.01 2.07 4.05 4.88 4.51 2.85 0.1 0.15 0 0 0.08 0 0.02 0 0.03 0.03 0 0 0 0 0
7.24 11.68 14.7 16.28 16.4 15.11 12.57 8.41 2.99 0.09 0.06 0 0 0 0 0 0 0.06 0 1.9 6.15 9.41 11.47 12.38 12.17 10.88 8.37 4.84 0 0.02 0.08 0.02 0 0.65 7.75 13.12 17.04 19.68 20.56 19.98 17.91 14.35 9.24 2.72 0.04 0 3.27 7.48 10.49 12.44 13.16 12.73 11.05 8.3 4.46 0.04 0 1.62 2.49 2.05 0.23 0 0 1.85 6.94 10.66 12.94 13.92 13.64 12.03 9.01 4.59 0 0 1.09 2.32 2.08 0.03 0 0.08 0.01 0 0.37 1.23 0.82 0 0 0.03 0.03 0 0.06 0.02 0 0 0 1.03 1.32 0.53 0 0
2.3 6.76 9.64 11.33 11.52 10.18 7.54 3.43 0 0 0.05 0 0 0 0.07 0.08 0 0.02 1.15 6.62 10.97 14.14 16.3 17.24 16.96 15.7 13.16 9.53 4.93 0 0.01 0 0 0 4.89 10.32 14.43 16.82 17.73 17.18 15.17 11.61 6.54 0.04 0 0 0.03 2.29 5.35 7.26 8.01 7.61 5.96 3.26 0 0.04 0 0.01 0.04 0 0.07 0.09 0.17 6.56 11.6 15.31 17.67 18.72 18.29 16.71 13.57 9.26 3.49 5.05 8.04 9.53 9.16 7 3.21 0 0.99 4.52 6.73 7.71 7.1 5.26 2.06 0.01 0 0 0.02 0.02 0 3.43 6.13 7.82 8.08 7.2 5.14 2.01
0.05 0.31 3.3 4.79 5 3.76 1.21 0 0.03 0.04 0.11 0.01 0 0.05 0 0.01 0.02 0.09 4.78 10.25 14.67 17.85 19.94 20.81 20.59 19.21 16.88 13.39 8.51 2.65 0.03 0.02 0.03 0.03 0.7 5.97 10.04 12.58 13.5 12.95 10.9 7.29 2.25 0 0 0 0 0.12 0.04 0.91 1.6 1.2 0.01 0.03 0 0 0.09 0.03 0 0 0 0 3.41 9.79 14.97 18.61 21.04 21.96 21.68 19.92 16.9 12.47 6.83 10.36 13.52 14.74 14.39 12.25 8.46 2.86 5.92 9.58 11.86 12.63 12.16 10.31 7.1 2.53 0.05 0 0 0 4.99 8.93 11.62 13.15 13.63 12.69 10.73 7.57
0.09 0 0 0.08 0.04 0.09 0.06 0.1 0.03 0 0.03 0 0 0 0 0 0.02 0.72 7.32 12.86 17.11 20.41 22.43 23.4 23.08 21.85 19.38 15.8 11.02 5.09 0.07 0.11 0.04 0.02 0.02 0.32 4.38 6.8 7.66 7.16 5.08 1.61 0 0 0 0.02 0 0 0.12 0.03 0 0.03 0 0.09 0.02 0 0 0 0 0 0.04 0 5.41 11.82 16.84 20.51 22.82 23.94 23.62 21.93 18.91 14.55 9.07 13.92 16.94 18.39 17.92 15.89 12.03 6.49 9.61 13.23 15.45 16.38 15.77 13.91 10.73 6.19 0.23 0 0 4.32 9.45 13.32 16.02 17.6 17.81 17.1 15.09 11.84
0 0.07 0.06 0.01 0 0 0.03 0 0 0 0 0 0.01 0.05 0 0.12 0 2.01 8.71 14.26 18.6 21.72 23.79 24.82 24.65 23.24 20.78 17.17 12.41 6.49 0 0 0 0 0 0 0.04 0 0.43 0.02 0 0.16 0.04 0 0 0.1 0.01 0 0.1 0 0.04 0.1 0 0.03 0.06 0 0 0 0 0 0 0.06 6 12.5 17.54 21.27 23.52 24.63 24.16 22.55 19.49 15.08 10.92 15.87 18.84 20.17 19.69 17.7 13.92 8.29 11.92 15.5 17.74 18.69 18.19 16.29 13.11 8.49 2.5 0 1.21 7.43 12.65 16.49 19.22 20.76 21.08 20.25 18.18 15
0 0 0 0.11 0 0.01 0 0 0.06 0.04 0.03 0 0.08 0 0.81 3.22 4.4 4.21 8.92 14.47 18.84 22.02 24.02 24.97 24.83 23.48 21 17.44 12.68 6.78 0 0.05 0.02 0 0.01 0.02 0 0.07 0.05 0 0.06 0 0.03 0 0.01 0 0.07 0 0 0.11 0 0.1 0 0.01 0.07 0.06 0 0.06 0.03 0 0.06 0 5.32 11.66 16.72 20.42 22.78 23.79 23.46 21.77 18.79 14.36 11.17 15.91 19.01 20.25 19.96 17.79 13.98 8.45 12.76 16.48 18.68 19.62 19.07 17.27 14.05 9.45 3.41 0.03 3.2 9.44 14.47 18.38 21.13 22.78 23.08 22.22 20.2 17.13
0.05 0.02 0.02 0.1 0 0 0 0 0.05 0 0.05 0.1 0.04 3.04 6.85 9.27 10.42 10.26 8.91 13.63 18.02 21.12 23.23 24.13 23.98 22.59 20.11 16.54 11.77 5.93 0.02 0 0.11 0 0.02 0.12 0 0.06 0 0.06 0 0 0 0 0.04 0.03 0 0 0 0.02 0.13 0 0 0 0 0 0.11 0 0 0 0.04 0 3.18 9.57 14.66 18.31 20.66 21.75 21.38 19.73 16.7 12.43 9.44 14.24 17.39 18.67 18.22 16.11 12.36 7.42 12.48 16.01 18.25 19.15 18.64 16.81 13.66 9.01 2.93 0.05 4.01 10.23 15.42 19.31 22.02 23.52 23.93 23.12 21.03 17.88
0 0.01 0 0 0 0.06 0 0.05 0.02 0 0 0 2.8 7.79 11.6 13.95 15.12 14.94 13.53 11.56 15.89 19.12 21.17 22.15 21.91 20.63 18.06 14.56 9.72 3.9 0.02 0 0 0.03 0 0 0 0 0.05 0.11 0.02 0 0 0 0.03 0.01 0 0 0.15 0.03 0 0 0 0 0.12 0.02 0 0.02 0 0 0 0.01 0.01 6.07 11.19 14.94 17.28 18.26 17.86 16.27 13.25 8.83 6.09 10.89 13.93 15.37 14.96 12.85 8.99 5.73 10.61 14.22 16.4 17.34 16.88 15.06 11.7 7.21 1.2 0 3.67 9.83 14.95 18.88 21.7 23.16 23.6 22.6 20.6 17.47
0.03 0 0.06 0.01 0 0.09 0.01 0.03 0 0 0.04 0 6.14 11.31 14.98 17.35 18.52 18.49 16.95 14.21 12.78 16 18.02 18.98 18.78 17.41 14.97 11.35 6.49 0.76 0.12 2.37 3.24 2.55 0.74 0 0 0.06 0 0.03 0.08 0.03 0 0 0 0 0 0 0.05 0 0 0.02 0 0.07 0.05 0 0.03 0 0.04 0.06 0.06 0 0 1.35 6.4 10.05 12.55 13.47 13.18 11.52 8.48 4.22 1.01 5.85 8.91 10.2 9.89 7.77 3.95 2.59 7.55 11.05 13.28 14.08 13.62 11.88 8.58 4.05 0.09 0.07 2.02 8.34 13.38 17.41 20.01 21.59 21.98 21.06 19.13 15.88
0 0.06 0.04 0.14 3.62 5.31 5.7 4.33 1.55 0.01 0 1.82 8.22 13.34 17.13 19.52 20.76 20.62 19.15 16.44 12.45 11.64 13.81 14.71 14.46 13.18 10.65 7.03 2.36 3.67 7.26 9.4 10.3 9.7 7.66 4.37 0 0 0.06 0.07 0 0.01 0.02 0 0.04 0.09 0 0 0.04 0 0.01 0.04 0 0.1 0 0 0 0.05 0.02 0.02 0 0 0.02 0 0.31 4.04 6.36 7.31 6.98 5.34 2.39 0.02 0.06 0.01 2.07 3.42 3.08 0.84 0.03 0 2.98 6.62 8.82 9.74 9.18 7.29 3.99 0.03 0.01 0.08 0 5.58 10.63 14.57 17.37 18.86 19.26 18.4 16.35 13.17
0.01 0 1.43 6.48 9.83 11.78 11.94 10.61 7.82 3.3 0.06 2.71 9.11 14.23 17.99 20.35 21.5 21.39 19.96 17.29 13.19 7.93 8.41 9.28 9.04 7.73 5.3 1.65 4.59 9.47 13.14 15.18 15.82 15.35 13.4 10.05 5.49 0.08 0 0 0 0 0.07 0.02 0.05 0 0 0 0 0.01 0.02 0 0.03 0 0 0.01 0.04 0.05 0.03 0.06 0.12 0.02 0 0 0 0 0.02 0 0.09 0.04 0 0.09 0.11 0 0 0 0.06 0.06 0.03 0 0 2.15 4.91 6.79 7.6 7.25 6 3.66 0.29 0.03 0.14 1.72 6.83 10.78 13.44 14.93 15.34 14.42 12.42 9.21
0.01 0.01 6.25 11.27 14.65 16.49 16.68 15.43 12.5 8.1 2.22 2.32 8.62 13.57 17.42 19.94 21.05 20.92 19.5 16.8 12.83 7.37 1.77 2.58 2.45 1.17 0 2.55 8.7 13.72 17.18 19.46 20.27 19.73 17.78 14.45 9.73 3.69 0.08 0.07 0 0.02 0.1 0.01 0 0.01 0.06 0 0 0.06 0.01 0 0 0.02 0.02 0.09 0.03 0.02 0 0.01 0.02 0 0 0.03 0 0 0.01 0 0.05 0 0 0.05 0.06 0 0.02 0.04 0.04 0.03 0.05 0.02 4.14 8 10.94 12.8 13.46 13.36 12.06 9.71 6.29 1.87 0 0 1.63 5.55 8.25 9.79 10.09 9.27 7.36 4.08
0.07 2.97 9.45 14.39 17.75 19.66 19.85 18.66 15.78 11.37 5.42 0.63 6.92 12 15.68 18.09 19.29 19.14 17.81 15.01 11.03 5.69 0.05 0.01 0 0 0 5.53 11.81 16.69 20.18 22.52 23.26 22.74 20.76 17.48 12.71 6.72 0 0 0 0 0 0 0.03 0.03 0 0 0 0 0 0 0 0 0.04 0.02 0.02 0.05 0 0.02 0 0 0 0.1 0 0 0.07 0 0 0.87 2.53 2.8 1.54 0.02 0.03 0 0 0 0.01 4.13 9.01 13.01 15.76 17.7 18.45 18.3 16.99 14.66 11.22 6.83 1.46 0.03 0 0 2.03 3.52 3.91 3.11 1.01 0
0.11 4.67 11.13 16.13 19.48 21.18 21.62 20.29 17.39 12.99 7.02 0 3.82 8.91 12.65 15.16 16.19 16.16 14.72 11.95 7.94 2.71 0.07 0.02 0 0.03 0 7.17 13.4 18.33 21.85 24.03 24.8 24.3 22.35 19.04 14.32 8.35 0.97 0.04 0 0 0.1 0 0.01 0 0 0 0.02 0.01 0 0.02 0 0 0.01 0 0 0 0.03 0 0 0 0.03 0 0.03 0.02 0 0.43 5.14 8.42 10.14 10.3 9.07 6.11 1.82 0 0.01 0.06 2.03 8.1 13.1 16.9 19.77 21.62 22.39 22.2 20.91 18.52 15.22 10.74 5.38 0.04 0.01 0 0.06 0.08 0 0 0.06 0
0 4.69 11.11 16.08 19.57 21.44 21.51 20.27 17.51 13.04 7.11 0 0 4.64 8.37 10.69 11.9 11.85 10.32 7.59 3.64 0.09 0.03 0.06 0.04 0.08 0.03 7.39 13.57 18.46 22.09 24.24 25.09 24.5 22.65 19.21 14.69 8.55 1.02 0 0.02 0.04 0.07 0 0.03 0 0 0.05 0.02 0 0.07 0.04 0.15 0.08 0 0.08 0.07 0 0.04 0.11 0 0 0 0.12 0 0.01 0.02 6.39 11.17 14.4 16.15 16.35 14.98 12.22 7.84 1.92 0.11 0.02 4.92 10.87 15.92 19.81 22.66 24.5 25.35 25.06 23.85 21.47 18.08 13.71 8.25 1.76 0.04 0.04 0 0.01 0 2.88 4.82 5.69
0.06 3.17 9.7 14.67 18.09 19.85 20.23 18.74 16.02 11.65 5.74 0 0 0 2.64 5.08 6.24 6.24 4.76 1.94 0 0.03 0 0.11 0 0.01 0.01 6.16 12.49 17.32 20.91 23.04 23.95 23.46 21.42 18.11 13.43 7.46 0 0 0 0.02 0.08 0.04 0 0.05 0.06 0.01 0 0.03 0 0 0.05 0 0 0.04 0.01 0.02 0 0 0.05 0 0 0 0.09 0.02 4.59 10.94 15.79 18.87 20.64 20.92 19.52 16.67 12.32 6.47 0.05 0.08 6.83 12.78 17.66 21.57 24.46 26.33 27.21 26.87 25.51 23.22 19.88 15.56 9.98 4.59 4.84 3.85 1.74 1.26 5.79 8.97 10.89 11.71
0 0.22 6.66 11.72 15 16.9 17.16 15.84 13.02 8.65 2.66 0.1 0.01 0 0 0 0 0 0 0.01 0 0 0 0 0.04 0 0.03 3.71 10.07 14.84 18.41 20.55 21.39 20.84 19.01 15.6 10.8 4.91 0 0.03 0.02 0 0 0.07 0 0.08 0.03 0 0.08 0.03 0 0 0 0.04 0 0 0.02 0 0 0 0 0 0.05 0.05 0 0.01 7.48 13.91 18.62 21.9 23.68 23.81 22.52 19.72 15.42 9.36 1.92 0.52 7.65 13.59 18.48 22.38 25.33 27.08 27.92 27.64 26.42 24.05 20.69 16.3 10.87 10.39 10.77 9.84 7.56 6.13 10.62 13.91 15.82 16.74
0 0.05 2.1 7.07 10.45 12.26 12.5 11.18 8.42 3.97 2.05 4.27 4.74 3.34 0.23 0 0 0 0 0 0 0 0 0.04 0 0 0 0.07 6.11 11 14.54 16.75 17.56 16.98 15.08 11.75 7.08 0.97 0 0.05 0.06 0.01 0 0.07 0 0 0.05 0 0 0 0.03 0.01 0 0 0 0 0 0 0 0 0 0 0 0.02 0.05 1.19 8.95 15.21 20.11 23.38 25.08 25.29 23.9 21.12 16.71 10.8 3.46 0.35 7.4 13.36 18.35 22.14 25.01 26.91 27.76 27.46 26.17 23.8 20.43 16.09 13.28 15.03 15.27 14.31 12.18 9.84 14.29 17.51 19.57 20.37
0.01 0.01 0.06 0.98 4.21 6.21 6.42 5.12 2.29 3.34 7.37 9.74 10.18 8.86 5.66 0.8 0.02 0.04 0.05 0.02 0 0.02 0.06 0 0 0.12 0 0 0.87 5.73 9.25 11.47 12.25 11.62 9.78 6.43 1.72 0.01 0 0.03 0.02 0 0 0.01 0.1 0.03 0.04 0.04 0.01 0.01 0 0.07 0.05 0 0.01 0 0.02 0.01 0.02 0.01 0 0 0 0 0.05 1.15 8.92 15.22 20.04 23.35 25.07 25.16 23.97 20.89 16.65 10.72 3.37 0 6.11 12 16.91 20.91 23.74 25.67 26.39 26.13 24.87 22.48 19.14 14.73 16.73 18.31 18.73 17.7 15.51 12.21 16.73 19.98 22.04 22.91
0 0 0 0.02 0 0.06 0.02 0 1.06 6.9 11.01 13.32 13.75 12.37 9.28 4.44 0 0.02 0.03 0 0.06 0.01 0.05 0.05 0 0.05 0 0 0 0 2.65 4.86 5.65 5.01 3.03 0 0 0.03 0.08 0 0.02 0.03 0.06 0.01 0.03 0.06 0 0 0 0 0 0.04 0 0.02 0 0.01 0.04 0 0 0 0 0 0.04 0.06 0.03 0.04 7.29 13.54 18.37 21.7 23.38 23.45 22.2 19.44 15.01 9.13 1.71 0 3.7 9.71 14.63 18.59 21.39 23.26 24.06 23.77 22.53 20.26 16.84 15.67 18.72 20.42 20.64 19.65 17.47 13.86 18.01 21.17 23.21 23.92
0.08 0.01 0.02 0.01 0 0 0 0 2.84 8.79 12.88 15.05 15.47 14.26 11.01 6.25 0.02 0 0.05 0 0 0 0 0.07 0 2.13 4.37 4.85 3.79 1.1 0.04 0 0 0 0.02 0 0 0 0.08 0 0 0.1 0 0 0 0 0 0 0.05 0 0.07 0.03 0 0 0.02 0.08 0 0 0.09 0 0.08 0 0.01 0.01 0.03 2.73 6.94 10.38 15.26 18.52 20.14 20.49 19.01 16.31 11.8 6.02 0.01 0.03 0.47 6.34 11.24 15.22 18.01 19.87 20.7 20.41 19.22 16.84 13.44 16.27 19.27 20.96 21.26 20.28 18.12 14.62 17.92 21.21 23.1 24.03
0.03 0.1 0 0 0 0 0 0.04 2.94 8.74 12.7 15.16 15.63 14.28 11.16 6.23 2.24 0.57 0 0 0 0.01 0.05 0 4.2 8.13 10.35 10.86 9.74 7.15 2.63 0 0 0 0 0.02 0.11 0 0 0 0.13 0.06 0 0 0 0 0 0.13 0.01 0 0 0.01 0.05 0 0 0.02 0 0.02 0 0 0 0.08 0 0.1 1.63 7.29 11.48 14.6 16.33 17 16.29 15.68 14.43 11.61 7.24 1.33 0.03 0.04 0.01 1.95 6.87 10.86 13.68 15.53 16.31 16 14.8 12.38 11.46 15.69 18.72 20.34 20.7 19.73 17.55 13.94 16.66 19.96 21.94 22.83
0 0.06 0.05 0 0 0 0 0.03 1.14 6.91 11.1 13.38 13.81 12.44 9.29 9.74 9.52 7.8 4.79 0.74 0 0.02 0.03 3.06 8.58 12.47 14.6 15.29 14.03 11.41 6.93 0.98 0.01 0.01 0.07 0 0 0 0.01 0.07 0 0.01 0.06 0.02 0.02 0.01 0.1 0.03 0 0.03 0 0 0 0 0 0.05 0 0.03 0.06 0.09 0.01 0 0 0.05 4.89 10.56 14.67 17.76 19.66 20.15 19.52 17.65 14.48 10.13 4.51 0.03 0.04 0 0.05 0.06 1.53 5.41 8.22 10.11 10.85 10.66 9.36 7.02 9.52 13.79 16.79 18.4 18.78 17.81 15.59 11.92 14.13 17.39 19.43 20.25
0 0 0 0 0.01 0 0 0 0.17 3.44 7.48 9.65 10.13 12.81 14.97 15.76 15.44 13.81 10.91 6.79 1.46 0 0.05 5.62 11.24 15.15 17.38 17.85 16.85 14.06 9.66 3.83 0 0 0.05 0 0 0 0.04 0.03 0 0.03 0 0 0 0.07 0 0 0 0 0 0.02 0 0.08 0 0 0 0 0.02 0.01 0.06 0.03 0 0.15 6.94 12.41 16.79 19.8 21.66 22.24 21.57 19.65 16.45 12.1 6.55 0 0.06 0.03 0.03 0.02 0 0 1.78 3.58 4.35 4.12 2.92 0.73 6.33 10.57 13.46 15.23 15.57 14.66 12.2 8.76 10.5 13.67 15.71 16.49
0 0 0.01 0 0 0.11 0 0 0 0.04 3.86 9.75 14.15 17.54 19.65 20.46 20.02 18.48 15.59 11.4 6.11 0 0.02 6.8 12.24 16.15 18.29 18.86 17.8 15.12 10.74 4.63 0 0.04 0.03 0 0.66 0.06 0 0 0.01 0.03 0.02 0.01 0.01 0.03 0 0 0 0 0.02 0.02 0 0 0 0.01 0 0 0.03 0.06 0.3 3.6 5.29 5.28 7.77 13.27 17.54 20.56 22.35 22.99 22.33 20.52 17.18 12.93 7.38 5.95 4.53 1.4 0 0.06 0 0.01 0.07 0.01 0.02 0 0 0.05 1.71 5.97 9.04 10.66 11.1 9.99 7.76 4.18 5.55 8.84 10.75 11.44
0 0 0.05 0.04 0 0.03 0.09 0.03 0.08 0.38 7.34 13.07 17.67 20.99 23.08 23.85 23.68 21.91 19.11 14.91 9.61 3.19 0.01 6.17 11.76 15.62 17.75 18.32 17.33 14.51 10.16 4.1 0 0.01 3.53 6.63 7.97 7.21 4.82 0.34 0 0 0 0.08 0 0.05 0.1 1.86 3.36 3.48 1.99 0.04 0.08 0 0 0 0.02 0 0.05 2.92 7.62 10.91 12.53 12.71 11.2 12.83 17.09 20.18 21.96 22.52 21.85 19.99 16.84 12.46 11.39 11.56 10.19 7.23 2.29 0 0.02 0 0 0.04 0.02 0 0 0 0.04 0.24 3.04 4.75 5.15 4.25 1.99 0.05 0 2.56 4.61 5.35
0.02 0.03 0.02 0 0 0.01 0 0.02 0 2.55 9.45 15.31 19.97 23.12 25.23 26.15 25.72 24.19 21.31 17.18 11.79 5.24 0.05 3.93 9.49 13.29 15.65 16.12 14.9 12.3 7.78 1.9 0 3.62 8.76 11.91 13.13 12.56 10.06 5.79 0 0 0 0.05 0.02 1.3 5.88 9.15 10.56 10.59 9.23 6.11 1.63 0.03 0 0 0 0 2.36 8.65 13.52 16.7 18.49 18.51 17.03 14.08 15.43 18.46 20.34 20.76 20.09 18.33 15.23 13.38 15.35 15.63 14.25 11.06 6.1 0.03 0 1.67 2.67 2.58 1.08 0 0 0 0 0.03 0.05 0 0.05 0 0 0.03 0 0 0 0
0 0 0 0.01 0 0 0.02 0.05 0.09 3.53 10.46 16.34 20.9 24.18 26.22 27.13 26.81 25.2 22.28 18.18 12.94 6.24 0 0.05 5.52 9.37 11.55 12.14 11.04 8.4 4.02 0.05 0.07 6.94 12.11 15.31 16.64 15.96 13.45 9.05 2.77 0 0.04 0.02 0.92 7.02 11.58 14.7 16.32 16.35 14.81 11.84 7.34 1.1 0.02 0.07 0.02 0 6.64 12.98 17.7 20.85 22.64 22.84 21.33 18.29 13.7 15.5 17.42 17.99 17.27 15.3 12.16 15.73 17.67 17.9 16.51 13.34 8.67 2.03 4.72 7.15 8.39 8.21 6.52 3.77 0 0.07 0 0 0 0 0.01 0 0.08 0.02 0 0.02 0.01 0
0 0 0.11 0 0 0 0 0 0.04 3.31 10.34 16.12 20.64 23.93 26.06 26.91 26.49 24.91 22.09 17.9 12.57 6.08 0 0 0 3.95 6.08 6.56 5.56 2.8 0 0.02 1.67 8.53 13.53 16.72 18.13 17.46 14.97 10.49 4.27 0 0 0 5.02 11.25 15.84 18.74 20.44 20.48 19 15.92 11.45 5.33 0 0 0.06 1.37 9.28 15.78 20.43 23.6 25.28 25.51 23.89 21.07 16.38 11.39 13.12 13.76 13.04 11.14 12.64 16.36 18.4 18.54 17.17 14.06 9.22 5.23 9.03 11.34 12.53 12.4 10.75 8.01 3.8 0 0 0.06 0 0.02 0.05 0.05 0 0.02 0.01 0.01 0 0
0 0.01 0.09 0 0.07 0.01 0.05 0 0.05 1.76 8.85 14.56 19.18 22.42 24.57 25.39 24.98 23.38 20.52 16.42 11.15 4.48 0.05 0 0.07 0.04 0.08 0 0.04 0 0 0.02 1.17 8.06 13.17 16.35 17.72 17.01 14.53 10.2 3.85 0 0.04 0 7.64 13.74 18.39 21.64 23.04 23.1 21.65 18.61 13.99 7.96 0.5 0 0 2.54 10.36 16.76 21.47 24.86 26.47 26.56 25.19 22.14 17.59 11.44 7.67 8.32 7.74 6.09 11.58 15.35 17.2 17.57 16.01 12.95 8.04 8.05 11.82 14.35 15.55 15.22 13.69 10.93 6.64 1.24 0 0 0 0 0.04 0.03 0 0 0.02 0.04 0.04 0
0 0 0 0 0 0 0 0 0.02 0 6.05 11.89 16.51 19.82 21.75 22.61 22.3 20.79 17.85 13.76 8.39 1.93 0.02 0 0 0 0 0.1 0.06 0 0.01 0.02 0 5.78 10.89 14.13 15.3 14.66 12.28 7.84 1.53 0 0.05 1.2 8.76 14.9 19.49 22.64 24.32 24.16 22.73 19.63 15.14 9.06 1.47 0 0.03 2.08 9.89 16.33 21.08 24.26 26.09 26.13 24.67 21.74 17.12 10.97 3.34 1.67 1.06 3.44 8.88 12.42 14.36 14.69 13.31 10.17 5.35 9.63 13.51 15.88 17.02 16.9 15.34 12.5 8.19 2.62 0.04 0.03 0.02 0 0 0 0.01 0 0 0.03 0.1 0
0 0.02 0 0.03 0 0.02 0 0 0.02 0.07 2.15 8.01 12.49 15.88 17.92 18.88 18.35 16.68 13.88 9.66 4.45 0 0.05 0 0 0 0.05 0.06 0 0 0.01 0 0.04 1.68 6.74 9.95 11.1 10.59 8.06 3.6 0.03 0 0 0.7 8.37 14.5 19.08 22.22 23.8 23.76 22.3 19.31 14.64 8.74 1.1 0.04 0 0.04 8.04 14.36 19.19 22.39 24.04 24.12 22.76 19.75 15.07 9.01 1.35 0.08 0.01 0 4.47 7.98 9.97 10.15 8.88 5.65 4.67 9.82 13.67 16.09 17.29 17.08 15.63 12.71 8.48 3.03 0.02 0.07 0.02 0.12 0.03 0.06 0.01 0 0.02 0.03 0.07 0.01
0.13 0.05 0 0.06 0 0 0 0.02 0 0.02 0.01 2.81 7.3 10.73 12.74 13.58 13.23 11.47 8.76 4.6 0 0.05 0 0.06 0 0 0.01 0.02 0.03 0 0 0 0.02 0.01 0.62 3.86 5.19 4.54 2.02 0 0.02 0 0 0 6.48 12.56 17.08 20.26 21.68 21.8 20.33 17.27 12.78 6.74 0.09 0.09 0.05 0.02 4.36 10.81 15.55 18.82 20.58 20.54 19.19 16.24 11.58 5.53 0.07 0 0 0.04 0 1.85 3.74 4.12 2.58 0 3.61 8.79 12.58 15.03 16.13 16.02 14.36 11.56 7.41 1.8 0.05 0 0 0 0 0 0.03 0 0.03 0 0 0
